!!!!SEGMENT: pl-wtm--r-1540--007_stefani-jozef--missa-benedictus.krn
!!!cenid: 18xx:1775
!!!COM: Stefani, Józef
!!!COM-rismID: pe30024097
!!!CDT: 1800/04/16-1876/03/19
!!!CNT: Polish
!!!OPR: Missa
!!!OTL: Benedictus
!!!OMV: 007
!!!PDT:
!!!AGN: Sacred; Mass
!!!SMS-siglum: PL-Wtm
!!!SMS-shelfmark: R 1540
!!!SMS-shelfwork: 001-007 M
!!!SMS-variant:
!!!SMS-altvar:
!!!NIFC-rismSourceID: 1001120486
!!!NIFC-rismChildID: 1001120486
!!!NIFC-islandoraID: pl-wtm:26331
!!!URL-pdf-islandora: https://repozytorium.nifc.pl/islandora/object/pl-wtm%3A26331/datastream/PDF/view
!!!URL-scan: https://polish.musicsources.pl/pl/lokalizacje/galeria/rekopisy/6341 @EN{Scan on Polish Music Sources Website} @PL{Skany w portalu Dziedzictwo Muzyki Polskiej w otwartym dostępie}
!!!ONB-nifc: UWAGA: części Mszy: 1. Kyrie, 2. Gloria, 3. Graduale, 4. Credo, 5. Offertorium, 6. Sanctus, 7. Benedictus, 8. Agnus Dei. Na końcu rękopisu parte puzonów, trąbek i kotłów
!!!OMD: Adagio
!!!AIN: 1 clars 1 cor 3 empty 1 fagot 1 flt 1 oboe 1 organ 2 soprn 2 tenor 1 timpa 1 tromp 1 tromt 1 viola 2 violn
!!!key:
**kern	**kern	**kern	**kern	**kern	**kern	**text	**dynam	**kern	**dynam	**kern	**text	**dynam	**kern	**kern	**text	**dynam	**kern	**dynam	**kern	**dynam	**kern	**dynam	**kern	**dynam	**kern	**dynam	**kern	**dynam	**kern	**dynam	**kern	**dynam	**kern	**dynam
*part19	*part18	*part17	*part16	*part15	*part14	*part14	*part14	*part13	*part13	*part12	*part12	*part12	*part11	*part10	*part10	*part10	*part9	*part9	*part8	*part8	*part7	*part7	*part6	*part6	*part5	*part5	*part4	*part4	*part3	*part3	*part2	*part2	*part1	*part1
*staff19	*staff18	*staff17	*staff16	*staff15	*staff14	*staff14	*	*staff13	*	*staff12	*staff12	*	*staff11	*staff10	*staff10	*	*staff9	*	*staff8	*	*staff7	*	*staff6	*	*staff5	*	*staff4	*	*staff3	*	*staff2	*	*staff1	*
*Itimpa	*Itromt	*Itromp	*Iempty	*Iorgan	*Iempty	*	*	*Itenor	*	*Itenor	*	*	*Isoprn	*Isoprn	*	*	*Iempty	*	*Iviola	*	*Ivioln	*	*Ivioln	*	*Ifagot	*	*Icor	*	*Iclars	*	*Ioboe	*	*Iflt	*
*I"Timpani C. G.	*I"Trombone	*I"Trombe in C	*	*I"Organo.	*I"Baſso	*	*	*I"[Tenore]	*	*I"Tenori	*	*	*I"2do. Soprano	*I"1o. Soprano	*	*	*I"Baſsi	*	*I"Viole	*	*I"[Violino Secondo]	*	*I"Violini	*	*I"Fagoto	*	*I"Corni in C	*	*I"Clarinetti in C	*	*I"Oboe	*	*I"Flauto	*
*I'timp	*I'trb	*I'tr in C	*	*I'org	*I'B	*	*	*I'T 2	*	*I'T 1	*	*	*I'S 2	*I'S 1	*	*	*I'b	*	*I'vla	*	*I'vl 2	*	*I'vl 1	*	*I'fag	*	*I'cor in C	*	*I'cl in C	*	*I'ob	*	*I'fl	*
*clefF4	*clefF4	*clefG2	*clefF4	*clefG2	*clefF4	*	*	*clefC4	*	*clefC4	*	*	*clefG2	*clefG2	*	*	*clefF4	*	*clefC3	*	*clefG2	*	*clefG2	*	*clefF4	*	*clefG2	*	*clefG2	*	*clefG2	*	*clefG2	*
*	*	*	*	*	*	*	*	*	*	*	*	*	*	*	*	*	*	*	*	*	*	*	*	*	*	*	*Trd0c0	*	*	*	*	*	*	*
*k[f#]	*k[f#]	*k[f#]	*k[f#]	*k[f#]	*k[f#]	*	*	*k[f#]	*	*k[f#]	*	*	*k[f#]	*k[f#]	*	*	*k[f#]	*	*k[f#]	*	*k[f#]	*	*k[f#]	*	*k[f#]	*	*k[f#]	*	*k[f#]	*	*k[f#]	*	*k[f#]	*
*G:	*G:	*G:	*G:	*G:	*G:	*	*	*G:	*	*G:	*	*	*G:	*G:	*	*	*G:	*	*G:	*	*G:	*	*G:	*	*G:	*	*G:	*	*G:	*	*G:	*	*G:	*
*M2/4	*M2/4	*M2/4	*M2/4	*M2/4	*M2/4	*	*	*M2/4	*	*M2/4	*	*	*M2/4	*M2/4	*	*	*M2/4	*	*M2/4	*	*M2/4	*	*M2/4	*	*M2/4	*	*M2/4	*	*M2/4	*	*M2/4	*	*M2/4	*
=1	=1	=1	=1	=1	=1	=1	=1	=1	=1	=1	=1	=1	=1	=1	=1	=1	=1	=1	=1	=1	=1	=1	=1	=1	=1	=1	=1	=1	=1	=1	=1	=1	=1	=1
*	*	*	*	*	*	*	*	*	*	*	*	*	*	*	*	*	*^	*	*	*	*	*	*	*	*	*	*	*	*	*	*	*	*	*
*	*	*	*2\right	*2\right	*	*	*	*	*	*	*	*	*	*	*	*	*	*	*	*	*	*	*	*	*	*	*	*	*	*	*	*	*	*	*
!	!	!	!LO:TX:t=P:problem=all\right&colon; global	!LO:TX:t=P:problem=all\right&colon; global	!	!	!	!	!	!	!	!	!	!	!	!	!	!	!	!	!	!	!	!	!	!	!	!	!	!	!	!	!	!	!
!	!	!	!	!	!	!	!	!	!	!	!	!	!	!	!	!	!	!LO:TX:t=P:problem=all\right&colon; global	!	!LO:TX:t=P:problem=all\right&colon; global	!	!LO:TX:t=P:problem=all\right&colon; global	!	!LO:TX:t=P:problem=all\right&colon; global	!	!	!	!	!	!	!	!	!	!	!
!	!	!	!	!	!	!	!	!	!	!	!	!	!LO:TX:t=P:problem=all\right&colon; global	!LO:TX:t=P:problem=all\right&colon; global	!	!	!	!	!	!	!	!	!	!	!	!	!	!	!	!	!	!	!	!	!
!	!	!	!	!	!LO:TX:t=P:problem=all\right&colon; global	!	!	!LO:TX:t=P:problem=all\right&colon; global	!	!LO:TX:t=P:problem=all\right&colon; global	!	!	!	!	!	!	!	!	!	!	!	!	!	!	!	!	!	!	!	!	!	!	!	!	!
!	!	!	!	!	!	!	!	!	!	!	!	!	!	!	!	!	!	!	!	!	!	!	!	!	!	!LO:TX:t=P:problem=all\right&colon; global	!	!LO:TX:t=P:problem=all\right&colon; global	!	!LO:TX:t=P:problem=all\right&colon; global	!	!LO:TX:t=P:problem=all\right&colon; global	!	!LO:TX:t=P:problem=all\right&colon; global	!
!	!	!LO:TX:a:Bi:t=Bendedictus tacet:problem=w źródle wspólne oznaczenie dla kotłów, puzonów i trąbek	!	!	!	!	!	!	!	!LO:TX:a:Bi:t=Solo	!	!	!	!	!	!	!	!	!	!	!	!	!	!	!	!	!	!	!	!	!	!	!	!	!
!	!	!	!	!	!	!	!LO:DY:a:rj	!	!	!	!	!LO:DY:a:rj	!	!	!	!	!	!	!	!	!LO:DY:b:rj	!	!	!	!LO:DY:b:rj	!	!	!	!	!	!	!	!	!	!
2ryy	2ryy	2ryy	4GG/	4g/	4GG/	.	p	4G/	.	4G/	Be-	p	2r	2r	.	.	4GG/	2rGG	.	4G/	p	2g/	.	(<4g/	p	2ryy	.	2ryy	.	2ryy	.	2ryy	.	2ryy	.
.	.	.	[>4G\	4b 4g/	4G\	.	.	4G/	.	4B\	-ne-	.	.	.	.	.	(>[>4G/	.	.	(>[>4g\	.	.	.	4b/)	.	.	.	.	.	.	.	.	.	.	.
=2	=2	=2	=2	=2	=2	=2	=2	=2	=2	=2	=2	=2	=2	=2	=2	=2	=2	=2	=2	=2	=2	=2	=2	=2	=2	=2	=2	=2	=2	=2	=2	=2	=2	=2	=2
*	*	*	*	*^	*	*	*	*	*	*	*	*	*	*	*	*	*	*	*	*	*	*	*	*	*	*	*	*	*	*	*	*	*	*	*
2ryy	2ryy	2ryy	4G\]	4a/	2a\	4G\	.	.	4A/	.	(>8.A\L	-di-	.	2r	2r	.	.	4G/]	2rGG	.	4g\]	.	2a/	.	(>4a/	.	2ryy	.	2ryy	.	2ryy	.	2ryy	.	2ryy	.
.	.	.	.	.	.	.	.	.	.	.	16d\Jk)	.	.	.	.	.	.	.	.	.	.	.	.	.	.	.	.	.	.	.	.	.	.	.	.	.
.	.	.	4F#\	4dd/	.	4F#\	.	.	4A/	.	4d\	-ctus	.	.	.	.	.	4F#/)	.	.	4f#\)	.	.	.	4dd\)	.	.	.	.	.	.	.	.	.	.	.
=3	=3	=3	=3	=3	=3	=3	=3	=3	=3	=3	=3	=3	=3	=3	=3	=3	=3	=3	=3	=3	=3	=3	=3	=3	=3	=3	=3	=3	=3	=3	=3	=3	=3	=3	=3	=3
2ryy	2ryy	2ryy	8G\L	4b/	4g\	(>8G\L	.	.	4G/	.	(>4B\	Be-	.	2r	2r	.	.	(>8G/L	2rGG	.	(>8g\L	.	(<4g/	.	(<4b/	.	2ryy	.	2ryy	.	2ryy	.	2ryy	.	2ryy	.
.	.	.	8E\J	.	.	8E\J)	.	.	.	.	.	.	.	.	.	.	.	8E/J)	.	.	8e\J)	.	.	.	.	.	.	.	.	.	.	.	.	.	.	.
.	.	.	8C/L	8a/L	4e\	(<8C/L	.	.	4E/	.	8A\)	.	.	.	.	.	.	(>8C/L	.	.	(<8c/L	.	4e/)	.	8a/L)	.	.	.	.	.	.	.	.	.	.	.
.	.	.	8C#X/J	8g/J	.	8C#X/J)	.	.	.	.	8G/	-ne-	.	.	.	.	.	8C#X/J)	.	.	8c#X/J)	.	.	.	8g'</J	.	.	.	.	.	.	.	.	.	.	.
*	*	*	*	*v	*v	*	*	*	*	*	*	*	*	*	*	*	*	*	*	*	*	*	*	*	*	*	*	*	*	*	*	*	*	*	*	*
=4	=4	=4	=4	=4	=4	=4	=4	=4	=4	=4	=4	=4	=4	=4	=4	=4	=4	=4	=4	=4	=4	=4	=4	=4	=4	=4	=4	=4	=4	=4	=4	=4	=4	=4	=4
2ryy	2ryy	2ryy	2D\	4b 4g/	4D\	.	.	4G/	.	4B/	-di-	.	2r	2r	.	.	4.D/	2rGG	.	4.d\	.	4g/	.	4b/	.	2ryy	.	2ryy	.	2ryy	.	2ryy	.	2ryy	.
.	.	.	.	4a 4f#/	8D\	.	.	8F#/	.	8A\	-ctus	.	.	.	.	.	.	.	.	.	.	8f#/	.	8a/	.	.	.	.	.	.	.	.	.	.	.
.	.	.	.	.	8D\	.	.	8A/	.	8F#/	qui	.	.	.	.	.	8D/	.	.	8A/	.	8d/	.	8f#/	.	.	.	.	.	.	.	.	.	.	.
=5	=5	=5	=5	=5	=5	=5	=5	=5	=5	=5	=5	=5	=5	=5	=5	=5	=5	=5	=5	=5	=5	=5	=5	=5	=5	=5	=5	=5	=5	=5	=5	=5	=5	=5	=5
2ryy	2ryy	2ryy	4GG/	4g/	4GG/	.	.	4B\	.	4G/	ve-	.	2r	2r	.	.	4GG/	2rGG	.	4B/	.	4.d/	.	(<4g/	.	2ryy	.	2ryy	.	2ryy	.	2ryy	.	2ryy	.
.	.	.	(>4G\	4b 4g/	8G\	.	.	8G/	.	8B\	-nit	.	.	.	.	.	4G/	.	.	4d\	.	.	.	4b/)	.	.	.	.	.	.	.	.	.	.	.
.	.	.	.	.	8G\	.	.	8G/	.	8B\	qui	.	.	.	.	.	.	.	.	.	.	8g/	.	.	.	.	.	.	.	.	.	.	.	.	.
!!LO:PB:g=original
=6	=6	=6	=6	=6	=6	=6	=6	=6	=6	=6	=6	=6	=6	=6	=6	=6	=6	=6	=6	=6	=6	=6	=6	=6	=6	=6	=6	=6	=6	=6	=6	=6	=6	=6	=6
*	*	*	*	*^	*	*	*	*	*	*	*	*	*	*	*	*	*	*	*	*	*	*	*	*	*	*	*	*	*	*^	*	*	*	*	*
2ryy	2ryy	2ryy	8G\L	4a/	2a\	(>8G\L	.	.	4A/	.	4A\	ve-	.	4r	4r	.	.	(>8G/L	4r	.	4.d\	.	4.a/	.	(>4a/	.	4r	.	2r	.	4r	4ryy	.	4r	.	4r	.
.	.	.	16F#\L	.	.	16F#\L	.	.	.	.	.	.	.	.	.	.	.	16F#/L	.	.	.	.	.	.	.	.	.	.	.	.	.	.	.	.	.	.	.
.	.	.	16E\JJ	.	.	16E\JJ)	.	.	.	.	.	.	.	.	.	.	.	16E/JJ	.	.	.	.	.	.	.	.	.	.	.	.	.	.	.	.	.	.	.
.	.	.	4F#\)	4dd/	.	8F#\	.	.	8A/	.	8d\	-nit	.	8r	8r	.	.	8F#/L)	8r	.	.	.	.	.	8dd\L)	.	8r	.	.	.	8r	8ryy	.	8r	.	8r	.
!	!	!	!	!	!	!	!	!	!	!	!	!	!	!	!	!	!LO:DY:a:rj	!	!	!LO:DY:b:rj	!	!	!	!LO:DY:a:rj	!	!LO:DY:a:rj	!	!	!	!	!	!	!	!	!	!	!LO:DY:b:rj
.	.	.	.	.	.	8F#\	.	.	8A/	.	8d\	in	.	8a/	8dd\	.	f	8F#'>/J	8F#\	f	8f#\	.	8a/	f	8dd'>\J	f	8F#\	.	.	.	8dd/	8a\	.	8aa\	.	8ddd\	f
*	*	*	*	*	*	*	*	*	*	*	*	*	*	*	*	*	*	*v	*v	*	*	*	*	*	*	*	*	*	*	*	*	*	*	*	*	*	*
=7	=7	=7	=7	=7	=7	=7	=7	=7	=7	=7	=7	=7	=7	=7	=7	=7	=7	=7	=7	=7	=7	=7	=7	=7	=7	=7	=7	=7	=7	=7	=7	=7	=7	=7	=7	=7
*	*	*	*	*	*	*	*	*	*^	*	*	*	*	*	*	*	*	*	*	*	*	*	*	*	*	*	*	*	*	*	*	*	*	*	*	*
!	!	!	!	!	!	!	!	!LO:DY:a:rj	!	!	!	!	!	!LO:DY:a:rj	!	!	!	!	!	!	!	!	!	!	!	!	!	!	!	!	!	!	!	!	!	!	!
2ryy	2ryy	2ryy	8G\L	8b\L	4ryy	8G\L	.	f	(>8B\L	4ryy	.	(>8B\L	no-	f	4b/	(>8b\L	.	.	8G\L	.	(>8g\L	.	(>8b\L	.	(>8b\L	.	(>8G\L	.	2r	.	(>8b/L	8g\L	.	4ddd\	.	(>8bb\L	.
.	.	.	8E\J	8ggJ 8ee\	.	8E\J	.	.	8e\J)	.	.	8g\J)	.	.	.	8gg\J)	.	.	8E\J	.	8b\J	.	8ee\J	.	8gg\J	.	8E\J	.	.	.	8gg/J)	8ee\J	.	.	.	8ggg\J	.
!	!	!	!	!	!	!	!	!	!	!	!	!	!	!	!	!	!	!	!LO:TX:t=P:problem=mixd beam	!	!	!	!	!	!	!	!LO:TX:t=P:problem=mixed beam	!	!	!	!	!	!	!	!	!	!
.	.	.	8A\L	8ff#L 8dd/	8a\L	8A\	.	.	8d/	8A\	.	8f#\	-mi-	.	8a/	8ff#\	.	.	8A\L	.	8a\L)	.	8dd\L)	.	8ff#\L)	.	8A\L)	.	.	.	8ff#/L	8dd\L	.	8aa\L	.	8fff#\L)	.
.	.	.	8AA\J	8eeJ 8cc#X/	8g\J	8AA/	.	.	8c#X/	8G\	.	8e\	-ne	.	8g/	8ee\	.	.	8AA/J	.	8g'>\J	.	8cc#X'>\J	.	8ee'>\J	.	8AA/J	.	.	.	8ee/J	8cc#X\J	.	8gg\J	.	8eee'>\J	.
=8	=8	=8	=8	=8	=8	=8	=8	=8	=8	=8	=8	=8	=8	=8	=8	=8	=8	=8	=8	=8	=8	=8	=8	=8	=8	=8	=8	=8	=8	=8	=8	=8	=8	=8	=8	=8	=8
2ryy	2ryy	2ryy	4.D\	8.eeL 8.cc#X/	8.g\L	8.D\	.	.	8.c#X/	8.G\	.	8.e\	Do-	.	8.g/	8.ee\	.	.	8.D/L	.	8.g\L	.	8.cc#X\L	.	8.ee\L	.	8.D/L	.	2r	.	8.ee/L	8.cc#X\L	.	(>8.gg\L	.	(>8.eee\L	.
.	.	.	.	16dd/Jk	16f#\Jk	16D\	.	.	16d/	16F#\	.	16d\	-mi-	.	16f#/	16dd\	.	.	16D/Jk	.	16f#\Jk	.	16dd\Jk	.	16dd\Jk	.	16D/Jk	.	.	.	16dd/Jk	16dd\Jk	.	16ff#\Jk	.	16ddd\Jk)	.
.	.	.	.	8dd/	8f#\	8D\	.	.	8d/	8F#\	.	8d\	-ni	.	8f#/	8dd\	.	.	8D/	.	8f#\	.	8dd\	.	8dd\	.	8D/	.	.	.	8dd/	8dd\	.	8ff#\)	.	8ddd\	.
.	.	.	8r	8r	8ryy	8r	.	.	8r	8ryy	.	8r	.	.	8r	8r	.	.	8r	.	8r	.	8r	.	8r	.	8r	.	.	.	8r	8ryy	.	8r	.	8r	.
*	*	*	*	*	*	*	*	*	*v	*v	*	*	*	*	*	*	*	*	*	*	*	*	*	*	*	*	*	*	*	*	*v	*v	*	*	*	*	*
=9	=9	=9	=9	=9	=9	=9	=9	=9	=9	=9	=9	=9	=9	=9	=9	=9	=9	=9	=9	=9	=9	=9	=9	=9	=9	=9	=9	=9	=9	=9	=9	=9	=9	=9	=9
*	*	*	*	*	*	*	*	*	*	*	*	*	*	*	*	*	*	*^	*	*	*	*	*	*	*	*	*	*	*	*	*	*	*	*	*
!	!	!	!	!	!	!	!	!LO:DY:a:rj	!	!	!	!	!LO:DY:a:rj	!	!	!	!	!	!	!	!	!LO:DY:b:rj	!	!	!	!LO:DY:b:rj	!	!	!	!	!	!	!	!	!	!
2ryy	2ryy	2ryy	4.E\	[>4ccn/	4.f#\	4.D\	.	p	4.F#/	.	[>4c\	Be-	p	2r	2r	.	.	4.D/	2rGG	.	4.d\	p	4.f#/	.	(>[>4cc\	p	2r	.	2r	.	2r	.	2r	.	2r	.
.	.	.	.	16cc/LL]	.	.	.	.	.	.	(>16c\LL]	.	.	.	.	.	.	.	.	.	.	.	.	.	16cc\LL]	.	.	.	.	.	.	.	.	.	.	.
.	.	.	.	16a/	.	.	.	.	.	.	16A\JJ)	.	.	.	.	.	.	.	.	.	.	.	.	.	16a\JJ)	.	.	.	.	.	.	.	.	.	.	.
.	.	.	8F#\	16ee/	16cc\LL	8F#\	.	.	(>16c\LL	.	(>16e\LL	-ne-	.	.	.	.	.	8F#/	.	.	8f#\	.	(<16cc/LL	.	(>16ee\LL	.	.	.	.	.	.	.	.	.	.	.
.	.	.	.	16dd/JJ	16b\JJ	.	.	.	16B\JJ)	.	16d\JJ)	.	.	.	.	.	.	.	.	.	.	.	16b/JJ)	.	16dd\JJ)	.	.	.	.	.	.	.	.	.	.	.
*	*	*	*	*v	*v	*	*	*	*	*	*	*	*	*	*	*	*	*	*	*	*	*	*	*	*	*	*	*	*	*	*	*	*	*	*	*
=10	=10	=10	=10	=10	=10	=10	=10	=10	=10	=10	=10	=10	=10	=10	=10	=10	=10	=10	=10	=10	=10	=10	=10	=10	=10	=10	=10	=10	=10	=10	=10	=10	=10	=10	=10
2ryy	2ryy	2ryy	[>2G\	8.ddL 8.b/	4G\	.	.	8.B\L	.	8.d\L	-di-	.	2r	2r	.	.	4G/	2rGG	.	4g\	.	8.b/L	.	8.dd\L	.	2r	.	2r	.	2r	.	2r	.	2r	.
.	.	.	.	16ccJk 16a/	.	.	.	16A\Jk	.	16c\Jk	.	.	.	.	.	.	.	.	.	.	.	16a/Jk	.	16cc\Jk	.	.	.	.	.	.	.	.	.	.	.
.	.	.	.	4b 4g/	8G\	.	.	8G/	.	8B\	-ctus	.	.	.	.	.	(>4G/	.	.	(>4g\	.	8g/	.	8b\	.	.	.	.	.	.	.	.	.	.	.
.	.	.	.	.	8G\	.	.	8G/	.	8B\	qui	.	.	.	.	.	.	.	.	.	.	8g/	.	8b\	.	.	.	.	.	.	.	.	.	.	.
!!LO:PB:g=original
=11	=11	=11	=11	=11	=11	=11	=11	=11	=11	=11	=11	=11	=11	=11	=11	=11	=11	=11	=11	=11	=11	=11	=11	=11	=11	=11	=11	=11	=11	=11	=11	=11	=11	=11	=11
*	*	*	*	*	*	*	*	*	*	*	*	*	*	*	*	*	*	*	*	*2\right	*	*	*	*	*	*	*	*	*	*	*	*	*	*	*
!	!	!	!	!	!	!	!	!	!	!	!	!	!	!	!	!	!	!	!	!LO:TX:a:t=P:problem=w źródle brak zakończenia łuku	!	!	!	!	!	!	!	!	!	!	!	!	!	!	!
2ryy	2ryy	2ryy	(>8G\L]	(>4cc 4a\	(>8G\L	.	.	(>4A\	.	(>4c\	ve-	.	2r	2r	.	.	8G/L	2rGG	.	[>2d\)	.	(<4a/	.	(>4cc\	.	2ryy	.	2ryy	.	2ryy	.	2ryy	.	2ryy	.
.	.	.	16F#\L	.	16F#\L	.	.	.	.	.	.	.	.	.	.	.	16F#/L	.	.	.	.	.	.	.	.	.	.	.	.	.	.	.	.	.	.
.	.	.	16E\JJ)	.	16E\JJ)	.	.	.	.	.	.	.	.	.	.	.	16E/JJ	.	.	.	.	.	.	.	.	.	.	.	.	.	.	.	.	.	.
.	.	.	4F#\	16ccLL 16a\	8F#\	.	.	16A\LL	.	16c\LL	.	.	.	.	.	.	4F#/)	.	.	.	.	16a/LL	.	16cc\LL	.	.	.	.	.	.	.	.	.	.	.
.	.	.	.	16ee 16cc\	.	.	.	16c\JJ)	.	16e\JJ)	.	.	.	.	.	.	.	.	.	.	.	16cc/	.	16ee\	.	.	.	.	.	.	.	.	.	.	.
.	.	.	.	16dd 16b\	8F#\	.	.	16B\	.	16d\	-nit	.	.	.	.	.	.	.	.	.	.	16b/	.	16dd\	.	.	.	.	.	.	.	.	.	.	.
!	!	!	!	!	!	!	!	!	!	!	!	!	!	!	!	!	!	!	!	!	!	!LO:TX:a:t=P:problem=w źródle łuk kończy się na kresce taktowej	!	!	!	!	!	!	!	!	!	!	!	!	!
.	.	.	.	16ccJJ 16a\)	.	.	.	16A\	.	16c\	in	.	.	.	.	.	.	.	.	.	.	16a/JJ)	.	16cc\JJ)	.	.	.	.	.	.	.	.	.	.	.
=12	=12	=12	=12	=12	=12	=12	=12	=12	=12	=12	=12	=12	=12	=12	=12	=12	=12	=12	=12	=12	=12	=12	=12	=12	=12	=12	=12	=12	=12	=12	=12	=12	=12	=12	=12
2ryy	2ryy	2ryy	4.G\	8.bL 8.g/	8.G\	.	.	8.G/	.	8.B\	no-	.	2ryy	2ryy	.	.	4.G/	2rGG	.	4.d\]	.	8.g/L	.	8.b\L	.	2ryy	.	2ryy	.	2ryy	.	2ryy	.	2ryy	.
.	.	.	.	16ccJk 16a/	16G\	.	.	16A/	.	16c\	-mi-	.	.	.	.	.	.	.	.	.	.	16a/Jk	.	16cc\Jk	.	.	.	.	.	.	.	.	.	.	.
.	.	.	.	8ddL 8b\	8G\	.	.	8B/	.	8d\	-ne	.	.	.	.	.	.	.	.	.	.	8b/	.	8dd\	.	.	.	.	.	.	.	.	.	.	.
.	.	.	8Fn\	8ddJ 8b\	8Fn\	.	.	8B\	.	8d\	qui	.	.	.	.	.	8Fn/	.	.	8g\	.	8b/	.	8dd\	.	.	.	.	.	.	.	.	.	.	.
=13	=13	=13	=13	=13	=13	=13	=13	=13	=13	=13	=13	=13	=13	=13	=13	=13	=13	=13	=13	=13	=13	=13	=13	=13	=13	=13	=13	=13	=13	=13	=13	=13	=13	=13	=13
*	*	*	*	*^	*	*	*	*	*	*	*	*	*	*	*	*	*	*	*	*	*	*	*	*	*	*	*	*	*	*	*	*	*	*	*
2ryy	2ryy	2ryy	4E\	4cc/	4g\	4E\	.	.	4G/	.	4c\	ve-	.	2ryy	2ryy	.	.	(>4E/	2rGG	.	(>4g\	.	(<4g/	.	(>4cc\	.	2ryy	.	2ryy	.	2ryy	.	2ryy	.	2ryy	.
.	.	.	4F#X\	8a/	8a\	8F#X\	.	.	8A/	.	8A\	-nit	.	.	.	.	.	4F#X/)	.	.	4f#X\)	.	8a/)	.	8a/)	.	.	.	.	.	.	.	.	.	.	.
.	.	.	.	(>16eeLL 16cc\	8ryy	8F#\	.	.	(>16c\LL	.	(>16e\LL	in	.	.	.	.	.	.	.	.	.	.	(<16cc/LL	.	(>16ee\LL	.	.	.	.	.	.	.	.	.	.	.
.	.	.	.	16ddJJ 16b\)	.	.	.	.	16B\JJ)	.	16d\JJ)	.	.	.	.	.	.	.	.	.	.	.	16b/JJ)	.	16dd\JJ)	.	.	.	.	.	.	.	.	.	.	.
*	*	*	*	*v	*v	*	*	*	*	*	*	*	*	*	*	*	*	*	*	*	*	*	*	*	*	*	*	*	*	*	*	*	*	*	*	*
=14	=14	=14	=14	=14	=14	=14	=14	=14	=14	=14	=14	=14	=14	=14	=14	=14	=14	=14	=14	=14	=14	=14	=14	=14	=14	=14	=14	=14	=14	=14	=14	=14	=14	=14	=14
*	*	*	*	*	*	*	*	*	*	*	*	*	*	*	*	*	*	*^	*	*	*	*	*	*	*	*	*	*	*	*	*	*	*	*	*
2ryy	2ryy	2ryy	4.G\	8.ddL 8.b\	8.G\	.	.	8.B\	.	8.d\	no-	.	2ryy	2ryy	.	.	4.G/	4.G\	4rGG	.	4.g\	.	8.b/L	.	8.dd\L	.	2ryy	.	2ryy	.	2ryy	.	2ryy	.	2ryy	.
.	.	.	.	16ccJk 16a\	16G\	.	.	16A\	.	16c\	-mi-	.	.	.	.	.	.	.	.	.	.	.	16a/Jk	.	16cc\Jk	.	.	.	.	.	.	.	.	.	.	.
.	.	.	.	8b 8g/	8G\	.	.	8G/	.	8B\	-ne	.	.	.	.	.	.	.	8rGG	.	.	.	8g/	.	8b\	.	.	.	.	.	.	.	.	.	.	.
.	.	.	8BB/	8dd#X 8a\	8BB/	.	.	8A^</	.	8d#X^>\	in	.	.	.	.	.	8BB^>/	8BB\	8ryy	.	8B/	.	8a^</	.	8dd#X^>\	.	.	.	.	.	.	.	.	.	.	.
*	*	*	*	*	*	*	*	*	*	*	*	*	*	*	*	*	*	*v	*v	*	*	*	*	*	*	*	*	*	*	*	*	*	*	*	*	*
*	*	*	*	*	*	*	*	*	*	*	*	*	*	*	*	*	*v	*v	*	*	*	*	*	*	*	*	*	*	*	*	*	*	*	*	*
=15	=15	=15	=15	=15	=15	=15	=15	=15	=15	=15	=15	=15	=15	=15	=15	=15	=15	=15	=15	=15	=15	=15	=15	=15	=15	=15	=15	=15	=15	=15	=15	=15	=15	=15
*	*	*	*	*^	*	*	*	*	*	*	*	*	*	*	*	*	*	*	*	*	*	*	*	*	*	*	*	*	*	*	*	*	*	*
!	!	!	!	!	!	!	!	!	!	!	!	!	!	!	!	!	!	!	!	!	!	!	!	!LO:TX:t=P:problem=mixed beam	!	!	!	!	!	!	!	!	!	!	!
!	!	!	!	!	!	!	!	!	!	!	!	!	!	!	!	!	!	!	!	!	!LO:HP:a	!	!	!	!LO:HP:a	!	!	!	!	!	!	!	!	!	!
2ryy	2ryy	2ryy	2C/	4ee/	2e\	8.C/	.	.	8.G/	.	8.e\	no-	.	2ryy	2ryy	.	.	8.C/L	<	8.c/L	<	8.g/L	.	8.ee\L	<	2ryy	.	2ryy	.	2ryy	.	2ryy	.	2ryy	.
!	!	!	!	!	!	!	!	!	!	!	!	!	!LO:HP:a	!	!	!	!	!	!	!	!	!	!	!	!	!	!	!	!	!	!	!	!	!	!
.	.	.	.	.	.	16C/	.	.	16G/	.	16A\	-mi-	<	.	.	.	.	16C/Jk	.	16c/Jk	.	16g/Jk	.	16a/Jk	.	.	.	.	.	.	.	.	.	.	.
.	.	.	.	4a/	.	8C/	.	.	8G/	.	8A\	-ne	.	.	.	.	.	8C/L	.	8c/L	.	8g/L	.	8a/L	.	.	.	.	.	.	.	.	.	.	.
.	.	.	.	.	.	8C/	.	.	8G/	.	8A\	in	[[	.	.	.	.	8C/J	[[	8c/J	[[	8g/J	.	8a/J	[[	.	.	.	.	.	.	.	.	.	.
!!LO:PB:g=original
*	*	*	*	*v	*v	*	*	*	*	*	*	*	*	*	*	*	*	*	*	*	*	*	*	*	*	*	*	*	*	*	*	*	*	*	*
=16	=16	=16	=16	=16	=16	=16	=16	=16	=16	=16	=16	=16	=16	=16	=16	=16	=16	=16	=16	=16	=16	=16	=16	=16	=16	=16	=16	=16	=16	=16	=16	=16	=16	=16
*	*	*	*	*	*	*	*	*	*	*	*	*	*	*	*	*	*	*	*	*	*	*	*	*	*	*	*	*	*^	*	*	*	*	*
!	!	!	!	!	!	!	!	!	!	!	!	!	!	!	!	!	!	!	!	!	!	!	!	!	!	!	!	!	!	!	!LO:HP:a	!	!	!	!
2ryy	2ryy	2ryy	2C#X/	4gg 4a#X\	8.C#X/	.	.	8.E/	.	8.g\	no-	.	2r	2r	.	.	8.C#X/L	.	8.eL 8.c#X\	.	8.g/L	.	8.gg\L	.	4.C#X/	.	4.gg 4.g\	.	(>4gg/	4.e\	>	2r	.	2r	.
.	.	.	.	.	16C#/	.	.	16E/	.	16A#X\	-mi-	.	.	.	.	.	16C#/Jk	.	16eJk 16c#\	.	16g/Jk	.	16a#X\Jk	.	.	.	.	.	.	.	.	.	.	.	.
.	.	.	.	4a#X 4f#/	8C#/	.	.	8E/	.	8A#\	-ne	.	.	.	.	.	8C#/L	.	8eL 8c#\	.	8g/L	.	8a#/L	.	.	.	.	.	8a#X/)	.	]	.	.	.	.
.	.	.	.	.	8C#/	.	.	8E/	.	8A#\	in	.	.	.	.	.	8C#/J	.	8eJ 8c#\	.	8g/J	.	8a#/J	.	8r	.	8r	.	8rdd	8re	.	.	.	.	.
*	*	*	*	*	*	*	*	*	*	*	*	*	*	*	*	*	*	*	*	*	*	*	*	*	*	*	*	*	*v	*v	*	*	*	*	*
=17	=17	=17	=17	=17	=17	=17	=17	=17	=17	=17	=17	=17	=17	=17	=17	=17	=17	=17	=17	=17	=17	=17	=17	=17	=17	=17	=17	=17	=17	=17	=17	=17	=17	=17
2ryy	2ryy	2ryy	4.D\	(>8bL 8g\	4D\	.	.	8G\L	.	8B\L	no-	.	2r	2r	.	.	4.D\	.	4.d\	.	8g/L	.	8b\L	.	2r	.	2r	.	2r	.	2r	.	2r	.
.	.	.	.	16ff#L 16dd\	.	.	.	16c\L	.	(>16e\L	.	.	.	.	.	.	.	.	.	.	(<16cc/L	.	(>16ee\L	.	.	.	.	.	.	.	.	.	.	.
.	.	.	.	16eeJJ 16cc\)	.	.	.	16B\JJ	.	16d\JJ	.	.	.	.	.	.	.	.	.	.	16b/JJ	.	16dd\JJ	.	.	.	.	.	.	.	.	.	.	.
.	.	.	.	(>16cc#XLL 16a#X\	8D\	.	.	16A#X\LL	.	16c#X\LL	.	.	.	.	.	.	.	.	.	.	16a#X/LL	.	16cc#X\LL	.	.	.	.	.	.	.	.	.	.	.
.	.	.	.	16ddJJ 16b\	.	.	.	16B\JJ	.	16d\JJ)	.	.	.	.	.	.	.	.	.	.	16b/	.	16dd\	.	.	.	.	.	.	.	.	.	.	.
.	.	.	8D#X\	16ccnLL 16an\	8D#X\	.	.	16An/	.	16cn\	-mi-	.	.	.	.	.	8D#X\	.	8d#X\	.	16an/	.	16ccn\	.	.	.	.	.	.	.	.	.	.	.
.	.	.	.	16aJJ 16f#\)	.	.	.	16F#/	.	16A\	-ne	.	.	.	.	.	.	.	.	.	16f#/JJ)	.	16a\JJ)	.	.	.	.	.	.	.	.	.	.	.
=18	=18	=18	=18	=18	=18	=18	=18	=18	=18	=18	=18	=18	=18	=18	=18	=18	=18	=18	=18	=18	=18	=18	=18	=18	=18	=18	=18	=18	=18	=18	=18	=18	=18	=18
2ryy	2ryy	2ryy	4.E\	4.g 4.e/	8.E\	.	.	8.E/	.	8.G/	Do-	.	2r	2r	.	.	8.E\L	.	8.e\L	.	8.e/L	.	8.g/L	.	2r	.	2r	.	2r	.	2r	.	2r	.
.	.	.	.	.	16E\	.	.	16E/	.	16G/	-mi-	.	.	.	.	.	16E\Jk	.	16e\Jk	.	16e/Jk	.	16g/Jk	.	.	.	.	.	.	.	.	.	.	.
.	.	.	.	.	8E\	.	.	8E/	.	8G/	-ni	.	.	.	.	.	8E\	.	8e\	.	8e/	.	8g/	.	.	.	.	.	.	.	.	.	.	.
.	.	.	8Dn\	8b 8g/	8Dn\	.	.	8G/	.	8B^>\	in	.	.	.	.	.	8Dn\	.	8dn\	.	8g/	.	8b^>/	.	.	.	.	.	.	.	.	.	.	.
=19	=19	=19	=19	=19	=19	=19	=19	=19	=19	=19	=19	=19	=19	=19	=19	=19	=19	=19	=19	=19	=19	=19	=19	=19	=19	=19	=19	=19	=19	=19	=19	=19	=19	=19
*	*	*	*	*^	*	*	*	*	*	*	*	*	*	*	*	*	*	*	*	*	*	*	*	*	*	*	*	*	*^	*	*	*	*	*
2ryy	2ryy	2ryy	4C/	4ee/	2g\	8.C/	.	.	8.G/	.	8.e\	no-	.	2r	2r	.	.	8.C/L	.	8.c\L	.	8.g/L	.	8.ee/L	>	4.C/	.	4.ee 4.cc\	.	(>4ee/	4.a\	>	2r	.	2r	.
!	!	!	!	!	!	!	!	!	!	!	!	!	!LO:HP:a	!	!	!	!	!	!	!	!	!	!	!	!	!	!	!	!	!	!	!	!	!	!	!
.	.	.	.	.	.	16C/	.	.	16G/	.	16A\	-mi-	<	.	.	.	.	16C/Jk	.	16e\Jk	.	16g/Jk	.	16a/Jk	.	.	.	.	.	.	.	.	.	.	.	.
.	.	.	4c 4C\	4a/	.	8C/	.	.	8G/	.	8A\	-ne	.	.	.	.	.	8C/L	.	8e\L	.	8g/L	.	8a/L	]	.	.	.	.	8a/)	.	]	.	.	.	.
.	.	.	.	.	.	8C/	.	.	8G/	.	8A\	in	[[	.	.	.	.	8C/J	.	8e\J	.	8g/J	.	8a/J	.	8r	.	8r	.	8rdd	8re	.	.	.	.	.
*	*	*	*	*v	*v	*	*	*	*	*	*	*	*	*	*	*	*	*	*	*	*	*	*	*	*	*	*	*	*	*	*	*	*	*	*	*
=20	=20	=20	=20	=20	=20	=20	=20	=20	=20	=20	=20	=20	=20	=20	=20	=20	=20	=20	=20	=20	=20	=20	=20	=20	=20	=20	=20	=20	=20	=20	=20	=20	=20	=20	=20
*	*	*	*	*	*	*	*	*	*	*	*	*	*	*	*	*	*	*	*	*	*rep	*	*	*	*	*	*	*	*	*	*	*	*	*	*
2ryy	2ryy	2ryy	2c#X 2C#X\	4gg 4a#X\	8.C#X/	.	.	8.E/	.	8.g\	no-	.	2r	2r	.	.	8.C#X/L	.	8.e\L	.	8.g/L	.	8.gg\L	>	4.C#X/	.	4.gg 4.g\	.	(>4gg/	4.e\	>	2r	.	2r	.
.	.	.	.	.	16C#/	.	.	16E/	.	16A#X\	-mi-	.	.	.	.	.	16C#/Jk	.	16e\Jk	.	16g/Jk	.	16a#X\Jk	.	.	.	.	.	.	.	.	.	.	.	.
.	.	.	.	4a#X 4e/	8C#/	.	.	8E/	.	8A#\	-ne	.	.	.	.	.	8C#/L	.	8e\L	.	8g/L	.	8a#\L	]	.	.	.	.	8a#X/)	.	]	.	.	.	.
.	.	.	.	.	8C#/	.	.	8E/	.	8A#\	in	.	.	.	.	.	8C#/J	.	8e\J	.	8g/J	.	8a#\J	.	8r	.	8r	.	8rdd	8re	.	.	.	.	.
*	*	*	*	*	*	*	*	*	*	*	*	*	*	*	*	*	*	*	*	*	*Xrep	*	*	*	*	*	*	*	*	*	*	*	*	*	*
!!LO:PB:g=original
*	*	*	*	*	*	*	*	*	*	*	*	*	*	*	*	*	*	*	*	*	*	*	*	*	*	*	*	*	*v	*v	*	*	*	*	*
=21	=21	=21	=21	=21	=21	=21	=21	=21	=21	=21	=21	=21	=21	=21	=21	=21	=21	=21	=21	=21	=21	=21	=21	=21	=21	=21	=21	=21	=21	=21	=21	=21	=21	=21
2ryy	2ryy	2ryy	4.d 4.D\	8b 8g/	8D\	.	.	8G/	.	8B\	no-	.	2r	2r	.	.	4.D\	.	4.d\	.	8g/L	.	8b'>\L	.	2r	.	2r	.	2r	.	2r	.	2r	.
.	.	.	.	(>16eeLL 16cc\	16D\	.	.	16c\	.	16e\	-mi-	.	.	.	.	.	.	.	.	.	16cc/L	.	(>16ee\L	.	.	.	.	.	.	.	.	.	.	.
.	.	.	.	16ddJJ 16b\)	16D\	.	.	16B\	.	16d\	-ne	.	.	.	.	.	.	.	.	.	16b/JJ	.	16dd\JJ	.	.	.	.	.	.	.	.	.	.	.
.	.	.	.	(>16cc#XLL 16a#X\	8D\	.	.	(>16A#X\LL	.	(>16c#X\LL	Do-	.	.	.	.	.	.	.	.	.	16a#X/LL	.	16cc#X\LL	.	.	.	.	.	.	.	.	.	.	.
.	.	.	.	16dd 16b\	.	.	.	16B\JJ)	.	16d\JJ)	.	.	.	.	.	.	.	.	.	.	16b/	.	16dd\	.	.	.	.	.	.	.	.	.	.	.
.	.	.	8D 8DD/	16ccn 16an\	8D\	.	.	16An/LL	.	(>16cn\LL	-mi-	.	.	.	.	.	8D\	.	8d\	.	16an/	.	16ccn\	.	.	.	.	.	.	.	.	.	.	.
.	.	.	.	16aJJ 16f#\)	.	.	.	16F#/JJ	.	16A\JJ)	.	.	.	.	.	.	.	.	.	.	16f#/JJ	.	16a\JJ)	.	.	.	.	.	.	.	.	.	.	.
=22	=22	=22	=22	=22	=22	=22	=22	=22	=22	=22	=22	=22	=22	=22	=22	=22	=22	=22	=22	=22	=22	=22	=22	=22	=22	=22	=22	=22	=22	=22	=22	=22	=22	=22
2ryy	2ryy	2ryy	4.G 4.GG/	4.g/	4.G\	.	.	4.G/	.	4.G/	-ni	.	2r	2r	.	.	4.G\	.	4.g\	.	4.g/	.	4.g/	.	2r	.	2r	.	2r	.	2r	.	2r	.
!	!	!	!	!	!	!	!	!	!	!LO:TX:a:Bi:t=tutti	!	!	!	!	!	!	!	!	!	!	!	!	!	!	!	!	!	!	!	!	!	!	!	!
.	.	.	8r	8r	8r	.	.	8r	.	8r	.	.	.	.	.	.	8r	.	8r	.	8r	.	8r	.	.	.	.	.	.	.	.	.	.	.
=23	=23	=23	=23	=23	=23	=23	=23	=23	=23	=23	=23	=23	=23	=23	=23	=23	=23	=23	=23	=23	=23	=23	=23	=23	=23	=23	=23	=23	=23	=23	=23	=23	=23	=23
!	!	!	!	!	!	!	!	!	!	!	!	!	!	!	!	!	!	!	!LO:TX:a:Bi:t=Col b(aſsi).	!	!	!	!	!	!	!	!	!	!	!	!	!	!	!
!	!	!	!	!	!	!	!LO:DY:a:rj	!	!	!	!	!LO:DY:a:rj	!	!	!	!LO:DY:a:rj	!	!LO:DY:b:rj	!	!LO:DY:b:rj	!	!	!	!LO:DY:b:rj	!	!	!	!LO:DY:b:rj	!	!	!	!	!	!LO:DY:b:rj
2ryy	2ryy	2ryy	16E\LL	4ee 4g\	4E\	.	f	4G/	.	4e\	Be-	f	4g/	4ee\	.	f	16E\LL	f	16E/LLyy	f	16e/LL	.	16e/LL	f	4E\	.	4ee 4b\	f	4ee 4g/	.	4gg\	.	4eee\	f
.	.	.	16G\	.	.	.	.	.	.	.	.	.	.	.	.	.	16G\	.	16G/yy	.	16g/	.	16g/	.	.	.	.	.	.	.	.	.	.	.
.	.	.	16B\	.	.	.	.	.	.	.	.	.	.	.	.	.	16B\	.	16B/yy	.	16b/	.	16b/	.	.	.	.	.	.	.	.	.	.	.
.	.	.	16E\JJ	.	.	.	.	.	.	.	.	.	.	.	.	.	16E\JJ	.	16E/JJyy	.	16e/JJ	.	16e/JJ	.	.	.	.	.	.	.	.	.	.	.
.	.	.	16D#X\LL	4ff# 4b\	4D#X\	.	.	4B\	.	4f#\	-ne-	.	4b/	4ff#\	.	.	16D#X\LL	.	16D#X/LLyy	.	16d#X/LL	.	16d#X/LL	.	4D#X\	.	4ff#X 4b\	.	4ff# 4b\	.	4bb\	.	4fff#\	.
.	.	.	16F#\	.	.	.	.	.	.	.	.	.	.	.	.	.	16F#\	.	16F#/yy	.	16f#/	.	16f#/	.	.	.	.	.	.	.	.	.	.	.
.	.	.	16B\	.	.	.	.	.	.	.	.	.	.	.	.	.	16B\	.	16B/yy	.	16b/	.	16b/	.	.	.	.	.	.	.	.	.	.	.
.	.	.	16D#\JJ	.	.	.	.	.	.	.	.	.	.	.	.	.	16D#\JJ	.	16D#/JJyy	.	16d#/JJ	.	16d#/JJ	.	.	.	.	.	.	.	.	.	.	.
=24	=24	=24	=24	=24	=24	=24	=24	=24	=24	=24	=24	=24	=24	=24	=24	=24	=24	=24	=24	=24	=24	=24	=24	=24	=24	=24	=24	=24	=24	=24	=24	=24	=24	=24
2ryy	2ryy	2ryy	16E\LL	4gg 4b\	4E\	.	.	4B\	.	4g\	-dic-	.	4ee\	4gg\	.	.	16E\LL	.	16E/LLyy	.	16e/LL	.	16e/LL	.	[>4E\	.	(>4gg 4ee\	.	(>4gg &(>4b\	.	(>4bb\	.	(>4ggg\	.
.	.	.	16G\	.	.	.	.	.	.	.	.	.	.	.	.	.	16G\	.	16G/yy	.	16g/	.	16g/	.	.	.	.	.	.	.	.	.	.	.
.	.	.	16B\	.	.	.	.	.	.	.	.	.	.	.	.	.	16B\	.	16B/yy	.	16b/	.	16b/	.	.	.	.	.	.	.	.	.	.	.
.	.	.	16e\JJ	.	.	.	.	.	.	.	.	.	.	.	.	.	16e\JJ	.	16e/JJyy	.	16ee/JJ	.	16ee/JJ	.	.	.	.	.	.	.	.	.	.	.
!	!	!	!	!	!	!	!	!	!	!	!	!	!	!	!	!	!	!	!	!	!	!	!LO:TX:t=P:problem=mixed beam	!	!	!	!	!	!	!	!	!	!	!
!	!	!	!	!	!	!	!	!	!	!	!	!	!	!	!	!	!	!	!	!	!	!	!	!	!	!	!	!	!LO:S:s=1:note:problem=note-level slur	!	!	!	!	!
!	!	!	!	!	!	!	!	!	!	!	!	!	!	!	!	!	!	!	!	!	!	!	!	!	!	!	!	!	!LO:S:s=2:note:problem=note-level slur	!	!	!	!	!
.	.	.	4E\	4ee 4g/	8E\	.	.	8G/	.	8e\	-tus	.	8b\	8ee\	.	.	8E\L	.	8E/Lyy	.	8e/L	.	8e/L	.	8E\L]	.	8eeL 8b\)	.	8eeL) 8g/&)	.	8gg\L)	.	8eee\L)	.
.	.	.	.	.	8E\	.	.	8G/	.	8e\	qui	.	8b\	8ee\	.	.	8E\J	.	8E/Jyy	.	8g/J	.	8ee\J	.	8E\J	.	8eeJ 8b\	.	8eeJ 8g/	.	8gg\J	.	8eee\J	.
!!LO:PB:g=original
=25	=25	=25	=25	=25	=25	=25	=25	=25	=25	=25	=25	=25	=25	=25	=25	=25	=25	=25	=25	=25	=25	=25	=25	=25	=25	=25	=25	=25	=25	=25	=25	=25	=25	=25
*	*	*	*	*^	*	*	*	*	*	*	*	*	*	*	*	*	*	*	*	*	*	*	*	*	*	*	*	*	*^	*	*	*	*	*
*	*	*	*	*	*	*	*	*	*	*	*	*	*	*	*	*	*	*	*	*tremolo	*	*tremolo	*	*tremolo	*	*	*	*	*	*	*	*	*	*	*	*
2ryy	2ryy	2ryy	4.F#\	4ee/	4.a\	4F#\	.	.	4A\	.	4e\	ve-	.	4a/	4ee\	.	.	4.F#\	.	16f#\LL	.	16a/LL	.	16ee\LL	.	4.F#\	.	2r	.	(>4ee/	[<4a\	.	[>4aa\	.	(>4eee\	.
.	.	.	.	.	.	.	.	.	.	.	.	.	.	.	.	.	.	.	.	16f#\	.	16a/	.	16ee\	.	.	.	.	.	.	.	.	.	.	.	.
.	.	.	.	.	.	.	.	.	.	.	.	.	.	.	.	.	.	.	.	16f#\	.	16a/	.	16ee\	.	.	.	.	.	.	.	.	.	.	.	.
.	.	.	.	.	.	.	.	.	.	.	.	.	.	.	.	.	.	.	.	16f#\JJ	.	16a/JJ	.	16ee\JJ	.	.	.	.	.	.	.	.	.	.	.	.
.	.	.	.	8dd#X/L	.	8F#\	.	.	8A\	.	8d#X\	-nit	.	8a/	8dd#X\	.	.	.	.	16f#\LL	.	16a/LL	.	16dd#X\LL	.	.	.	.	.	8dd#X/L)	8a\L]	.	8aa\L]	.	8ddd#X\L)	.
.	.	.	.	.	.	.	.	.	.	.	.	.	.	.	.	.	.	.	.	16f#\	.	16a/	.	16dd#\	.	.	.	.	.	.	.	.	.	.	.	.
.	.	.	8A\	8ff#/J	8cc\	8A\	.	.	8c\	.	8f#\	qui	.	8cc\	8ff#\	.	.	8A\	.	16a\	.	16cc/	.	16ff#\	.	8A\	.	.	.	8ff#'>/J	8cc\J	.	8ccc'>\J	.	8fff#'>\J	.
.	.	.	.	.	.	.	.	.	.	.	.	.	.	.	.	.	.	.	.	16a\JJ	.	16cc/JJ	.	16ff#\JJ	.	.	.	.	.	.	.	.	.	.	.	.
=26	=26	=26	=26	=26	=26	=26	=26	=26	=26	=26	=26	=26	=26	=26	=26	=26	=26	=26	=26	=26	=26	=26	=26	=26	=26	=26	=26	=26	=26	=26	=26	=26	=26	=26	=26	=26
2ryy	2ryy	2ryy	4.G\	4ff#/	2b\	4G\	.	.	4B\	.	4f#\	ve-	.	4b/	4ff#\	.	.	4.G\	.	16g\LL	.	16b/LL	.	16ff#\LL	.	4.G\	.	2r	.	(>4ff#/	4.b\	.	4.bb\	.	(>4fff#\	.
.	.	.	.	.	.	.	.	.	.	.	.	.	.	.	.	.	.	.	.	16g\	.	16b/	.	16ff#\	.	.	.	.	.	.	.	.	.	.	.	.
.	.	.	.	.	.	.	.	.	.	.	.	.	.	.	.	.	.	.	.	16g\	.	16b/	.	16ff#\	.	.	.	.	.	.	.	.	.	.	.	.
.	.	.	.	.	.	.	.	.	.	.	.	.	.	.	.	.	.	.	.	16g\JJ	.	16b/	.	16ff#\JJ	.	.	.	.	.	.	.	.	.	.	.	.
.	.	.	.	8ee/L	.	8G\	.	.	8B\	.	8e\	-nit	.	8b/	8ee\	.	.	.	.	16g\LL	.	16b/	.	16ee\LL	.	.	.	.	.	8ee/L)	.	.	.	.	8eee\L)	.
.	.	.	.	.	.	.	.	.	.	.	.	.	.	.	.	.	.	.	.	16g\	.	16b/	.	16ee\	.	.	.	.	.	.	.	.	.	.	.	.
.	.	.	8G#X\	8ddn/J	.	8G#X\	.	.	8B\	.	8dn\	in	.	8b/	8ddn\	.	.	8G#X\	.	16g#X\	.	16b/	.	16ddn\	.	8G#X\	.	.	.	8ddn/J	8b\	.	8bb\	.	8dddn\J	.
.	.	.	.	.	.	.	.	.	.	.	.	.	.	.	.	.	.	.	.	16g#\JJ	.	16b/JJ	.	16dd\JJ	.	.	.	.	.	.	.	.	.	.	.	.
=27	=27	=27	=27	=27	=27	=27	=27	=27	=27	=27	=27	=27	=27	=27	=27	=27	=27	=27	=27	=27	=27	=27	=27	=27	=27	=27	=27	=27	=27	=27	=27	=27	=27	=27	=27	=27
*	*	*	*	*	*	*	*	*	*2\right	*	*	*	*	*	*	*	*	*	*	*	*	*	*	*	*	*	*	*	*	*	*2\right	*	*2\right	*	*	*
!	!	!	!	!	!LO:TX:a:t=P:problem=note position	!	!	!	!	!	!	!	!	!	!	!	!	!	!	!	!	!	!	!	!	!	!	!	!	!	!	!	!	!	!	!
2ryy	2ryy	2ryy	8A\L	8cc/L	2a\	(>8A\L	.	.	2A\	.	(>8c\L	no-	.	2a/	(>8cc\L	.	.	8A\L	.	16a\LL	.	16a/LL	.	16cc\LL	.	8A\L	.	2r	.	(>8cc/L	2a\	.	2aa\	.	(>8ccc\L	.
.	.	.	.	.	.	.	.	.	.	.	.	.	.	.	.	.	.	.	.	16a\	.	16a/	.	16cc\	.	.	.	.	.	.	.	.	.	.	.	.
.	.	.	8Gn\J	8cc#X/	.	8Gn\J	.	.	.	.	8c#X\	.	.	.	8cc#X\	.	.	8Gn\J	.	16gn\	.	16a/	.	16cc#X\	.	8Gn\J	.	.	.	8cc#X/	.	.	.	.	8ccc#X\	.
.	.	.	.	.	.	.	.	.	.	.	.	.	.	.	.	.	.	.	.	16g\JJ	.	16a/	.	16cc#\	.	.	.	.	.	.	.	.	.	.	.	.
.	.	.	4F#\	8dd/	.	4F#\)	.	.	.	.	8d\	.	.	.	8dd\	.	.	4F#\	.	16f#\LL	.	16a/	.	16dd\	.	4F#\	.	.	.	8dd/	.	.	.	.	8ddd\	.
.	.	.	.	.	.	.	.	.	.	.	.	.	.	.	.	.	.	.	.	16f#\	.	16a/	.	16dd\	.	.	.	.	.	.	.	.	.	.	.	.
.	.	.	.	8ccn/J	.	.	.	.	.	.	8cn\J)	.	.	.	8ccn\J)	.	.	.	.	16f#\	.	16a/	.	16ccn\	.	.	.	.	.	8ccn/J)	.	.	.	.	8cccn\J)	.
.	.	.	.	.	.	.	.	.	.	.	.	.	.	.	.	.	.	.	.	16f#\JJ	.	16a/JJ	.	16cc\JJ	.	.	.	.	.	.	.	.	.	.	.	.
*	*	*	*	*v	*v	*	*	*	*	*	*	*	*	*	*	*	*	*	*	*	*	*	*	*	*	*	*	*	*	*v	*v	*	*	*	*	*
=28	=28	=28	=28	=28	=28	=28	=28	=28	=28	=28	=28	=28	=28	=28	=28	=28	=28	=28	=28	=28	=28	=28	=28	=28	=28	=28	=28	=28	=28	=28	=28	=28	=28	=28
2ryy	2ryy	2ryy	8G\L	8bL 8g\	(>8G\L	.	.	(>8G\L	.	(>8B\L	-mi-	.	(<8g/L	(>8b\L	.	.	8G\L	.	16g\LL	.	16g/LL	.	16b\LL	.	8G\L	.	2r	.	(>8bL 8g/	.	8gg\L	.	(>8bb\L	.
.	.	.	.	.	.	.	.	.	.	.	.	.	.	.	.	.	.	.	16g\	.	16g/	.	16b\	.	.	.	.	.	.	.	.	.	.	.
.	.	.	8E\J	8ggJ 8b\	8E\J)	.	.	8B\J)	.	8g\J)	.	.	8b/J)	8gg\J)	.	.	8E\J	.	16e\	.	16b/	.	16gg\	.	8E\J	.	.	.	8ggJ 8b/)	.	8bb\J	.	8ggg\J)	.
.	.	.	.	.	.	.	.	.	.	.	.	.	.	.	.	.	.	.	16e\JJ	.	16b/JJ	.	16gg\JJ	.	.	.	.	.	.	.	.	.	.	.
!	!	!	!	!	!	!	!	!	!	!	!	!	!	!	!	!	!	!	!LO:TX:t=P:problem=mixed beam	!	!	!	!	!	!	!	!	!	!	!	!	!	!	!
.	.	.	8A\L	8ff#L 8dd 8a\	(>8A\L	.	.	(>8d\L	.	8f#\L	-ne	.	4a/	(>8ff#\L	.	.	8A\L	.	16a\LL	.	16dd\LL	.	16ff#\LL	.	8A\L	.	.	.	(>8ff#L 8dd\	.	4aa\	.	(>8fff#\L	.
.	.	.	.	.	.	.	.	.	.	.	.	.	.	.	.	.	.	.	16a\	.	16dd\	.	16ff#\	.	.	.	.	.	.	.	.	.	.	.
.	.	.	8G\J	8eeJ 8cc#X 8a\	8G\J)	.	.	8c#X\J)	.	8e\J	.	.	.	8ee\J)	.	.	8G\J	.	16A/	.	16cc#X\	.	16ee\	.	8G\J	.	.	.	8eeJ 8cc#X\)	.	.	.	8eee\J)	.
.	.	.	.	.	.	.	.	.	.	.	.	.	.	.	.	.	.	.	16A/JJ	.	16cc#\JJ	.	16ee\JJ	.	.	.	.	.	.	.	.	.	.	.
*	*	*	*	*	*	*	*	*	*	*	*	*	*	*	*	*	*	*	*Xtremolo	*	*Xtremolo	*	*Xtremolo	*	*	*	*	*	*	*	*	*	*	*
=29	=29	=29	=29	=29	=29	=29	=29	=29	=29	=29	=29	=29	=29	=29	=29	=29	=29	=29	=29	=29	=29	=29	=29	=29	=29	=29	=29	=29	=29	=29	=29	=29	=29	=29
*	*	*	*	*	*	*	*	*	*	*	*	*	*	*	*	*	*	*	*	*	*	*	*	*	*	*	*^	*	*^	*	*	*	*	*
2ryy	2ryy	2ryy	4.F#\	4.dd 4.a\	8.F#\	.	.	8.d\	.	8.d\	Do-	.	8.a/	8.dd\	.	.	8.F#\L	.	8.f#L 8.A/	.	8.dd/L	.	8.dd\L	.	8.F#\L	.	4dd/	8.dd\L	.	8.dd/L	8.dd\L	.	8.aa\L	.	8.ddd\L	.
.	.	.	.	.	16F#\	.	.	16A\	.	16d\	-mi-	.	16a/	16dd\	.	.	16F#\Jk	.	16f#Jk 16A/	.	16a/Jk	.	16dd\Jk	.	16F#\Jk	.	.	16dd\Jk	.	16dd/Jk	16a\Jk	.	16aa\Jk	.	16ddd\Jk	.
.	.	.	.	.	8F#\	.	.	8A\	.	8d\	-ni	.	8a/	8dd\	.	.	8F#\L	.	8f#L 8A/	.	8a/L	.	8dd\L	.	8F#\L	.	4ryy	8dd\L	.	8dd/L	8a\L	.	8aa\L	.	8ddd\L	.
.	.	.	8G\	8ee 8b\	8G\	.	.	8B\	.	8e\	in	.	8b/	8ee\	.	.	8G\J	.	8gJ 8B/	.	8b/J	.	8ee\J	.	8G\J	.	.	8eeJ 8dd\	.	8ee/J	8b\J	.	8bb\J	.	8eee\J	.
!!LO:PB:g=original
=30	=30	=30	=30	=30	=30	=30	=30	=30	=30	=30	=30	=30	=30	=30	=30	=30	=30	=30	=30	=30	=30	=30	=30	=30	=30	=30	=30	=30	=30	=30	=30	=30	=30	=30	=30	=30
*	*	*	*	*^	*	*	*	*	*	*	*	*	*	*	*	*	*	*	*	*	*	*	*	*	*	*	*	*	*	*	*	*	*	*	*	*
*	*	*	*	*	*	*	*	*	*	*	*	*	*	*	*	*	*	*	*	*tremolo	*	*tremolo	*	*tremolo	*	*	*	*	*	*	*	*	*	*	*	*	*
2ryy	2ryy	2ryy	[>2A\	2ff# 2dd/	2a\	4A\	.	.	4d\	.	4f#\	no-	.	4a/	4ff#\	.	.	4A\	.	16f#LL 16A\	.	16dd\LL	.	16ff#\LL	.	4A\	.	4dd/	4dd\	.	4ff#/	4dd\	.	4aa\	.	4fff#\	.
.	.	.	.	.	.	.	.	.	.	.	.	.	.	.	.	.	.	.	.	16f# 16A\	.	16dd\	.	16ff#\	.	.	.	.	.	.	.	.	.	.	.	.	.
.	.	.	.	.	.	.	.	.	.	.	.	.	.	.	.	.	.	.	.	16f# 16A\	.	16dd\	.	16ff#\	.	.	.	.	.	.	.	.	.	.	.	.	.
.	.	.	.	.	.	.	.	.	.	.	.	.	.	.	.	.	.	.	.	16f# 16A\	.	16dd\	.	16ff#\	.	.	.	.	.	.	.	.	.	.	.	.	.
.	.	.	.	.	.	8A\	.	.	8d\	.	8f#\	-mi-	.	8a/	8ff#\	.	.	8A\L	.	16f# 16A\	.	16dd\	.	16ff#\	.	8A\L	.	8dd/L	8dd\L	.	8ff#/L	8dd\L	.	8aa\L	.	8fff#\L	.
.	.	.	.	.	.	.	.	.	.	.	.	.	.	.	.	.	.	.	.	16f# 16A\	.	16dd\	.	16ff#\	.	.	.	.	.	.	.	.	.	.	.	.	.
.	.	.	.	.	.	8A\	.	.	8d\	.	8f#\	-ne	.	8a/	8ff#\	.	.	8A\J	.	16f# 16A\	.	16dd\	.	16ff#\	.	8A\J	.	8dd/J	8dd\J	.	8ff#/J	8dd\J	.	8aa\J	.	8fff#\J	.
.	.	.	.	.	.	.	.	.	.	.	.	.	.	.	.	.	.	.	.	16f#JJ 16A\	.	16dd\JJ	.	16ff#\JJ	.	.	.	.	.	.	.	.	.	.	.	.	.
*	*	*	*	*	*	*	*	*	*	*	*	*	*	*	*	*	*	*	*	*	*	*Xtremolo	*	*	*	*	*	*	*	*	*	*	*	*	*	*	*
=31	=31	=31	=31	=31	=31	=31	=31	=31	=31	=31	=31	=31	=31	=31	=31	=31	=31	=31	=31	=31	=31	=31	=31	=31	=31	=31	=31	=31	=31	=31	=31	=31	=31	=31	=31	=31	=31
!	!	!	!	!	!	!	!	!	!	!	!	!	!	!	!	!	!	!	!	!	!	!	!	!	!	!	!	!	!	!	!LO:TX:a:t=P:problem=note position	!	!	!	!	!	!
2ryy	2ryy	2ryy	2A] 2AA\	4.ee/	8dd\L	4AA/	.	.	(>8d\L	.	4.e\	Do-	.	4.a/	4.ee\	.	.	4.AA/	.	16eLL 16A\	.	16dd'>\LL	.	16ee\LL	.	4.A\	.	4.ee/	4.ee\	.	(>4.ee/	8dd\L	.	4.aa\	.	4.eee\	.
.	.	.	.	.	.	.	.	.	.	.	.	.	.	.	.	.	.	.	.	16e 16A\	.	16dd'>\	.	16ee\	.	.	.	.	.	.	.	.	.	.	.	.	.
.	.	.	.	.	16cc#X\L	.	.	.	16c#X\L	.	.	.	.	.	.	.	.	.	.	16e 16A\	.	(>16cc#X\	.	16ee\	.	.	.	.	.	.	.	16cc#X\L	.	.	.	.	.
.	.	.	.	.	16b\JJ	.	.	.	16B\JJ)	.	.	.	.	.	.	.	.	.	.	16e 16A\	.	16b\JJ)	.	16ee\JJ	.	.	.	.	.	.	.	16b\JJ	.	.	.	.	.
*	*	*	*	*	*	*	*	*	*	*	*	*	*	*	*	*	*	*	*	*	*	*tremolo	*	*	*	*	*	*	*	*	*	*	*	*	*	*	*
.	.	.	.	.	4cc# 4a\	4AA/	.	.	4c#\	.	.	.	.	.	.	.	.	.	.	16e 16A\	.	16cc#\LL	.	16ee\LL	.	.	.	.	.	.	.	4cc#\	.	.	.	.	.
.	.	.	.	.	.	.	.	.	.	.	.	.	.	.	.	.	.	.	.	16e 16A\	.	16cc#\	.	16ee\	.	.	.	.	.	.	.	.	.	.	.	.	.
.	.	.	.	8aa/	.	.	.	.	.	.	8a\	-mi-	.	8cc#X\	8aa\	.	.	8AA/	.	16e 16A\	.	16cc#\	.	16aa\	.	8AA/	.	8ee/	8ee\	.	8aa/)	.	.	8ccc#X\	.	8aaa\	.
.	.	.	.	.	.	.	.	.	.	.	.	.	.	.	.	.	.	.	.	16eJJ 16A\	.	16cc#\JJ	.	16aa\JJ	.	.	.	.	.	.	.	.	.	.	.	.	.
*	*	*	*	*	*	*	*	*	*	*	*	*	*	*	*	*	*	*	*	*Xtremolo	*	*Xtremolo	*	*Xtremolo	*	*	*	*	*	*	*	*	*	*	*	*	*
=32	=32	=32	=32	=32	=32	=32	=32	=32	=32	=32	=32	=32	=32	=32	=32	=32	=32	=32	=32	=32	=32	=32	=32	=32	=32	=32	=32	=32	=32	=32	=32	=32	=32	=32	=32	=32	=32
2ryy	2ryy	2ryy	8d 8D\	8dd/	8dd\	8D\	.	.	8d\	.	8d\	-ni.	.	8dd\	8dd\	.	.	8D/	.	8d\	.	8dd\	.	8dd\	.	8D/	.	8dd/	8dd\	.	8dd/	8dd\	.	8ddd\	.	8ddd\	.
!	!	!	!	!	!	!	!	!	!	!	!LO:TX:a:Bi:t=Solo	!	!	!	!	!	!	!	!	!	!	!	!	!	!	!	!	!	!	!	!	!	!	!	!	!	!
!	!	!	!	!	!	!	!	!	!	!	!	!	!	!	!	!	!	!	!	!	!	!	!	!	!LO:DY:a:rj	!	!	!	!	!	!	!	!	!	!	!	!
.	.	.	8r	8r	8ryy	8r	.	.	8r	.	(>16e\LL	Be-	.	8r	8r	.	.	8r	.	8r	.	8r	.	(>16ee\LL	p	8r	.	8r	8ryy	.	8r	8ryy	.	8r	.	8r	.
.	.	.	.	.	.	.	.	.	.	.	16d\JJ	.	.	.	.	.	.	.	.	.	.	.	.	16dd\JJ	.	.	.	.	.	.	.	.	.	.	.	.	.
.	.	.	4r	4r	4ryy	4r	.	.	4r	.	16cn\LL	.	.	4r	4r	.	.	4r	.	4r	.	4r	.	16ccn\LL	.	4r	.	4r	4ryy	.	4r	4ryy	.	4r	.	4r	.
.	.	.	.	.	.	.	.	.	.	.	16B\	.	.	.	.	.	.	.	.	.	.	.	.	16b\	.	.	.	.	.	.	.	.	.	.	.	.	.
.	.	.	.	.	.	.	.	.	.	.	8qd/	.	.	.	.	.	.	.	.	.	.	.	.	8qdd/	.	.	.	.	.	.	.	.	.	.	.	.	.
.	.	.	.	.	.	.	.	.	.	.	16c\	.	.	.	.	.	.	.	.	.	.	.	.	16cc\	.	.	.	.	.	.	.	.	.	.	.	.	.
.	.	.	.	.	.	.	.	.	.	.	16A\JJ	.	.	.	.	.	.	.	.	.	.	.	.	16a\JJ)	.	.	.	.	.	.	.	.	.	.	.	.	.
*	*	*	*	*	*	*	*	*	*	*	*	*	*	*	*	*	*	*	*	*	*	*	*	*	*	*	*	*v	*v	*	*	*	*	*	*	*	*
*	*	*	*	*v	*v	*	*	*	*	*	*	*	*	*	*	*	*	*	*	*	*	*	*	*	*	*	*	*	*	*v	*v	*	*	*	*	*
=33	=33	=33	=33	=33	=33	=33	=33	=33	=33	=33	=33	=33	=33	=33	=33	=33	=33	=33	=33	=33	=33	=33	=33	=33	=33	=33	=33	=33	=33	=33	=33	=33	=33	=33
*	*	*	*	*	*	*	*	*	*	*	*	*	*	*	*	*	*^	*	*	*	*	*	*	*	*	*	*	*	*	*	*	*	*	*
!	!	!	!	!	!LO:TX:a:Bi:t=solo	!	!	!	!	!	!	!	!	!	!	!	!	!	!	!	!	!	!	!	!	!	!	!	!	!	!	!	!	!	!
!	!	!	!	!	!	!	!LO:DY:a:rj	!	!LO:DY:a:rj	!	!	!LO:DY:a:rj	!	!	!	!	!	!	!LO:DY:b:rj	!	!	!	!LO:DY:b:rj	!	!	!	!	!	!	!	!	!	!	!	!
2ryy	2ryy	2ryy	4GG/	4g/	4GG/	Be-	p	4G/	p	4G/)	.	p	2r	2r	.	.	4GG/	2rGG	p	4G/	.	2g/	p	(<4g/	.	2r	.	2r	.	2r	.	2r	.	2r	.
.	.	.	[>4G\	4b 4g/	4G\	-ne-	.	4G/	.	4B\	-ne-	.	.	.	.	.	[>4G/	.	.	[>4g\	.	.	.	4b/)	.	.	.	.	.	.	.	.	.	.	.
=34	=34	=34	=34	=34	=34	=34	=34	=34	=34	=34	=34	=34	=34	=34	=34	=34	=34	=34	=34	=34	=34	=34	=34	=34	=34	=34	=34	=34	=34	=34	=34	=34	=34	=34	=34
*	*	*	*	*^	*	*	*	*	*	*	*	*	*	*	*	*	*	*	*	*	*	*	*	*	*	*	*	*	*	*	*	*	*	*	*
2ryy	2ryy	2ryy	4G\]	4a/	2a\	4G\	-di-	.	4A/	.	4A\	-di-	.	2r	2r	.	.	4G/]	2rGG	.	4g\]	.	2a/	.	(>4a/	.	2r	.	2r	.	2r	.	2r	.	2r	.
.	.	.	4F#\	4dd/	.	4F#\	-ctus	.	4A/	.	4d\	-ctus	.	.	.	.	.	4F#/	.	.	4f#\	.	.	.	4dd\)	.	.	.	.	.	.	.	.	.	.	.
!!LO:PB:g=original
*	*	*	*	*	*	*	*	*	*	*	*	*	*	*	*	*	*	*v	*v	*	*	*	*	*	*	*	*	*	*	*	*	*	*	*	*	*
=35	=35	=35	=35	=35	=35	=35	=35	=35	=35	=35	=35	=35	=35	=35	=35	=35	=35	=35	=35	=35	=35	=35	=35	=35	=35	=35	=35	=35	=35	=35	=35	=35	=35	=35	=35
2ryy	2ryy	2ryy	8G\L	4b/	4g\	8G\L	.	.	4G/	.	(>4B\	be-	.	2r	2r	.	.	(>8G\L	.	(>8g\L	.	4g/	.	(>4b/	.	2ryy	.	2ryy	.	2ryy	.	2ryy	.	2ryy	.
.	.	.	8E\J	.	.	8E\	.	.	.	.	.	.	.	.	.	.	.	8E\J)	.	8e\J)	.	.	.	.	.	.	.	.	.	.	.	.	.	.	.
.	.	.	8C/L	8a/L	4e\	8C\J	.	.	4E/	.	8A\)	.	.	.	.	.	.	(<8C/L	.	(>8c\L	.	4e/	.	8a/L)	.	.	.	.	.	.	.	.	.	.	.
.	.	.	8C#X/J	8g/J	.	8C#X/	.	.	.	.	8G\	-ni-	.	.	.	.	.	8C#X/J)	.	8c#X\J)	.	.	.	8g'>/J	.	.	.	.	.	.	.	.	.	.	.
*	*	*	*	*v	*v	*	*	*	*	*	*	*	*	*	*	*	*	*	*	*	*	*	*	*	*	*	*	*	*	*	*	*	*	*	*
=36	=36	=36	=36	=36	=36	=36	=36	=36	=36	=36	=36	=36	=36	=36	=36	=36	=36	=36	=36	=36	=36	=36	=36	=36	=36	=36	=36	=36	=36	=36	=36	=36	=36	=36
2ryy	2ryy	2ryy	[>4D\	4b 4g/	4D\	.	.	4G/	.	4B\	-di-	.	2r	2r	.	.	4D/	.	4d\	.	4g/	.	(<4b/	.	2ryy	.	2ryy	.	2ryy	.	2ryy	.	2ryy	.
.	.	.	8dL 8D\]	8a 8f#/	8D\	.	.	8F#/	.	8A\	-ctus	.	.	.	.	.	8D/L	.	8d\L	.	8f#/	.	8a/)	.	.	.	.	.	.	.	.	.	.	.
.	.	.	8cJ 8Cn\	8f# 8d/	8Cn/	.	.	8D/	.	8F#/	qui	.	.	.	.	.	8Cn/J	.	8cn\J	.	8d/	.	8f#/	.	.	.	.	.	.	.	.	.	.	.
=37	=37	=37	=37	=37	=37	=37	=37	=37	=37	=37	=37	=37	=37	=37	=37	=37	=37	=37	=37	=37	=37	=37	=37	=37	=37	=37	=37	=37	=37	=37	=37	=37	=37	=37
*	*	*	*	*	*	*	*	*	*	*	*	*	*	*	*	*	*	*	*	*	*	*	*	*	*	*	*	*	*	*	*	*	*	*
2ryy	2ryy	2ryy	4B 4BB\	4g 4d/	4BB/	.	.	4D/	.	4G/	ve-	.	2r	2r	.	.	4BB/	.	4B/	.	4d/	.	(>4g/	.	2ryy	.	2ryy	.	2ryy	.	2ryy	.	2ryy	.
.	.	.	4G 4GG/	4b [<4g/	8GG/	.	.	8G/	.	8B\	-nit	.	.	.	.	.	4GG/	.	4G/	.	(>[<4g/	.	8b/L)	.	.	.	.	.	.	.	.	.	.	.
.	.	.	.	.	8G\	.	.	8G/	.	8B\	qui	.	.	.	.	.	.	.	.	.	.	.	8b'>/J	.	.	.	.	.	.	.	.	.	.	.
=38	=38	=38	=38	=38	=38	=38	=38	=38	=38	=38	=38	=38	=38	=38	=38	=38	=38	=38	=38	=38	=38	=38	=38	=38	=38	=38	=38	=38	=38	=38	=38	=38	=38	=38
*	*	*	*	*^	*	*	*	*	*	*	*	*	*	*	*	*	*	*	*	*	*	*	*	*	*	*	*	*	*	*	*	*	*	*
2ryy	2ryy	2ryy	2D 2DD/	4a/	8g\L]	4D\	.	.	(<8G/L	.	4A\	ve-	.	4r	4r	.	.	4D\	.	4A/	.	8g/L]	.	(>4a/	.	4r	.	2r	.	4r	.	4r	.	4r	.
.	.	.	.	.	16f#\L	.	.	.	16F#/L	.	.	.	.	.	.	.	.	.	.	.	.	16f#/L	.	.	.	.	.	.	.	.	.	.	.	.	.
.	.	.	.	.	16e\JJ	.	.	.	16E/JJ)	.	.	.	.	.	.	.	.	.	.	.	.	16e/JJ)	.	.	.	.	.	.	.	.	.	.	.	.	.
.	.	.	.	4dd/	4f#\	8D\	.	.	8F#/	.	8d\	-nit	.	8r	8r	.	.	8D\L	.	8A/L	.	8f#/L	.	8dd\L)	.	8r	.	.	.	8r	.	8r	.	8r	.
!	!	!	!	!	!	!	!	!	!	!	!	!	!	!	!	!	!LO:DY:a:rj	!	!	!	!	!	!LO:DY:b:rj	!	!	!	!LO:DY:b:rj	!	!	!	!LO:DY:b:rj	!	!	!	!LO:DY:b:rj
.	.	.	.	.	.	8D\	.	.	8F#/	.	8d\	in	.	8f#/	8dd\	.	f	8D\J	.	8A/J	.	8f#/J	f	8dd'>\J	.	8F#\	f	.	.	8b 8g/	f	8aa\	.	8ddd\	f
*	*	*	*	*v	*v	*	*	*	*	*	*	*	*	*	*	*	*	*	*	*	*	*	*	*	*	*	*	*	*	*	*	*	*	*	*
=39	=39	=39	=39	=39	=39	=39	=39	=39	=39	=39	=39	=39	=39	=39	=39	=39	=39	=39	=39	=39	=39	=39	=39	=39	=39	=39	=39	=39	=39	=39	=39	=39	=39	=39
*	*	*	*	*	*	*	*	*^	*	*	*	*	*	*	*	*	*	*	*	*	*	*	*	*	*	*	*	*	*	*	*	*	*	*
!	!	!	!	!	!	!	!LO:DY:a:rj	!	!	!	!	!	!LO:DY:a:rj	!	!	!	!	!	!	!LO:TX:t=P:problem=mixed beam	!	!	!	!	!	!	!	!	!	!	!	!	!	!	!
2ryy	2ryy	2ryy	8GL 8GG/	8bL 8g\	8G\L	no-	f	8G/L	4G\	.	8B\L	no-	f	8g/L	(>8b\L	.	.	8G\L	.	8B/L	.	8g/L	.	(>8b\L	.	(>8G\L	.	2r	.	(>8bL 8g\	.	(>4bb\	.	(>8bb\L	.
.	.	.	8EJ 8EE/	8ggJ 8ee 8b\	8E\J	.	.	8e/J	.	.	8g\J	.	.	8b/J	8gg\J)	.	.	8E\J	.	8b\J	.	8ee/J	.	8gg\J)	.	8E\J	.	.	.	8ggJ 8ee\	.	.	.	8ggg\J	.
!	!	!	!	!	!	!	!	!	!	!	!	!	!	!	!	!	!	!LO:TX:t=P:problem=mixed beam	!	!	!	!	!	!	!	!LO:TX:t=P:problem=mixed beam	!	!	!	!	!	!	!	!	!
.	.	.	4A 4AA\	8ff#L 8dd 8a\	8A\	-mi-	.	8d/	8A\	.	8f#\	-mi-	.	8a/	8ff#\	.	.	8A\L	.	8a\L	.	8dd\L	.	8ff#\L	.	8A\L)	.	.	.	8ff#L 8dd\)	.	8aa\L)	.	8fff#\L)	.
.	.	.	.	8eeJ 8cc#X 8a\	8AA/	-ne	.	8c#X/	8G\	.	8e\	-ne	.	8g/	8ee\	.	.	8AA/J	.	8g\J	.	8cc#X\J	.	8ee\J	.	8AA/J	.	.	.	8eeJ 8cc#X'>\	.	8gg'>\J	.	8eee'>\J	.
=40	=40	=40	=40	=40	=40	=40	=40	=40	=40	=40	=40	=40	=40	=40	=40	=40	=40	=40	=40	=40	=40	=40	=40	=40	=40	=40	=40	=40	=40	=40	=40	=40	=40	=40	=40
2ryy	2ryy	2ryy	4.A 4.D\	8.eeL 8.cc#X 8.g/	8.D\	Do-	.	8.c#X/	8.G\	.	8.e\	Do-	.	8.g/	8.ee\	.	.	8.D/L	.	8.g\L	.	8.cc#X\L	.	8.ee\L	.	8.D/L	.	2r	.	8.eeL 8.cc#X\	.	8.gg\L	.	8.eee\L	.
.	.	.	.	16ddJk 16f#/	16D\	-mi-	.	16d/	16F#\	.	16d\	-mi-	.	16f#/	16dd\	.	.	16D/Jk	.	16f#\Jk	.	16dd\Jk	.	16dd\Jk	.	16D/Jk	.	.	.	16dd\Jk	.	16ff#\Jk	.	16ddd\Jk	.
.	.	.	.	8dd 8f#/	8D\	-ni	.	8d/	8F#\	.	8d\	-ni	.	8f#/	8dd\	.	.	8D/	.	8f#\	.	8dd\	.	8dd\	.	8D/	.	.	.	8dd\	.	8ff#\	.	8ddd\	.
.	.	.	8r	8r	8r	.	.	8r	8ryy	.	8r	.	.	8r	8r	.	.	8r	.	8r	.	8r	.	8r	.	8r	.	.	.	8r	.	8r	.	8r	.
!!LO:PB:g=original
*	*	*	*	*	*	*	*	*v	*v	*	*	*	*	*	*	*	*	*	*	*	*	*	*	*	*	*	*	*	*	*	*	*	*	*	*
=41	=41	=41	=41	=41	=41	=41	=41	=41	=41	=41	=41	=41	=41	=41	=41	=41	=41	=41	=41	=41	=41	=41	=41	=41	=41	=41	=41	=41	=41	=41	=41	=41	=41	=41
*	*	*	*	*	*	*	*	*	*	*	*	*	*	*	*	*	*^	*	*	*	*	*	*	*	*	*	*	*	*	*	*	*	*	*
!	!	!	!	!	!	!	!	!	!	!	!	!LO:DY:a:rj	!	!	!	!	!	!	!	!	!LO:DY:b:rj	!	!	!	!LO:DY:b:rj	!	!	!	!	!	!	!	!	!	!
2ryy	2ryy	2ryy	4.D\	4cc 4a/	4.D\	.	.	(<4A/	.	(>4c\	Be-	p	2r	2r	.	.	4.D/	2rGG	.	4.d\	p	(<4.f#/	.	(>[>4cc\	p	2ryy	.	2ryy	.	2ryy	.	2ryy	.	2ryy	.
.	.	.	.	8a 8f#/	.	.	.	8F#/)	.	8A\)	.	.	.	.	.	.	.	.	.	.	.	.	.	16cc\LL]	.	.	.	.	.	.	.	.	.	.	.
.	.	.	.	.	.	.	.	.	.	.	.	.	.	.	.	.	.	.	.	.	.	.	.	16a\	.	.	.	.	.	.	.	.	.	.	.
.	.	.	8F#\	(>16eeLL 16cc\	8F#\	.	.	(>16c\LL	.	(>16e\LL	-ne-	.	.	.	.	.	8F#/	.	.	8f#\	.	16cc/LL	.	16ee\	.	.	.	.	.	.	.	.	.	.	.
.	.	.	.	16ddJJ 16b\)	.	.	.	16B\JJ)	.	16d\JJ)	.	.	.	.	.	.	.	.	.	.	.	16b/JJ)	.	16dd\JJ)	.	.	.	.	.	.	.	.	.	.	.
=42	=42	=42	=42	=42	=42	=42	=42	=42	=42	=42	=42	=42	=42	=42	=42	=42	=42	=42	=42	=42	=42	=42	=42	=42	=42	=42	=42	=42	=42	=42	=42	=42	=42	=42	=42
2ryy	2ryy	2ryy	[>2G\	8.ddL 8.b\	4G\	.	.	(>8.B\L	.	(>8.d\L	-di-	.	2r	2r	.	.	4G/	2rGG	.	4g\	.	8.b/L	.	8.dd\L	.	2ryy	.	2ryy	.	2ryy	.	2ryy	.	2ryy	.
.	.	.	.	16ccJk 16a\	.	.	.	16A\Jk)	.	16c\Jk)	.	.	.	.	.	.	.	.	.	.	.	16a/Jk	.	16cc\Jk	.	.	.	.	.	.	.	.	.	.	.
.	.	.	.	4b 4g/	8G\	.	.	8G/	.	8B\	-ctus	.	.	.	.	.	(>4G/	.	.	[>4g\	.	8g/	.	8b\	.	.	.	.	.	.	.	.	.	.	.
.	.	.	.	.	(>8G\	.	.	8G/	.	8B\	qui	.	.	.	.	.	.	.	.	.	.	8g/	.	8b\	.	.	.	.	.	.	.	.	.	.	.
=43	=43	=43	=43	=43	=43	=43	=43	=43	=43	=43	=43	=43	=43	=43	=43	=43	=43	=43	=43	=43	=43	=43	=43	=43	=43	=43	=43	=43	=43	=43	=43	=43	=43	=43	=43
2ryy	2ryy	2ryy	8G\L]	(>4cc 4a\	8G\L	.	.	4A\	.	4c\	ve-	.	2r	2r	.	.	8G/L	2rGG	.	8g\L]	.	(<[<4a/	.	(>[>4cc\	.	2ryy	.	2ryy	.	2ryy	.	2ryy	.	2ryy	.
.	.	.	(>16F#\L	.	16F#\L	.	.	.	.	.	.	.	.	.	.	.	16F#/L	.	.	16f#\L	.	.	.	.	.	.	.	.	.	.	.	.	.	.	.
.	.	.	16E\JJ	.	16E\JJ)	.	.	.	.	.	.	.	.	.	.	.	16E/JJ)	.	.	16e\JJ	.	.	.	.	.	.	.	.	.	.	.	.	.	.	.
.	.	.	4F#\)	16ccLL 16a\	8F#\	.	.	(>16A\LL	.	(>16c\LL	-nit	.	.	.	.	.	4F#/	.	.	4f#\	.	16a/LL]	.	16cc\LL]	.	.	.	.	.	.	.	.	.	.	.
.	.	.	.	16ee 16cc\	.	.	.	16c\JJ)	.	16e\JJ)	.	.	.	.	.	.	.	.	.	.	.	16cc/	.	16ee\	.	.	.	.	.	.	.	.	.	.	.
.	.	.	.	16dd 16b\	8F#\	.	.	(>16B\LL	.	(>16d\LL	in	.	.	.	.	.	.	.	.	.	.	16b/	.	16dd\	.	.	.	.	.	.	.	.	.	.	.
.	.	.	.	16ccJJ 16a\)	.	.	.	16A\JJ)	.	16c\JJ)	.	.	.	.	.	.	.	.	.	.	.	16a/JJ)	.	16cc\JJ)	.	.	.	.	.	.	.	.	.	.	.
=44	=44	=44	=44	=44	=44	=44	=44	=44	=44	=44	=44	=44	=44	=44	=44	=44	=44	=44	=44	=44	=44	=44	=44	=44	=44	=44	=44	=44	=44	=44	=44	=44	=44	=44	=44
*	*	*	*	*	*	*	*	*	*	*	*	*	*	*	*	*	*	*	*	*	*	*	*	*	*	*	*	*	*	*^	*	*	*	*	*
2ryy	2ryy	2ryy	4.G\	8.bL 8.g/	8.G\	.	.	8.G/	.	8.B\	no-	.	4r	4r	.	.	4.G/	4rGG	.	4.g\	.	8.g/L	.	8.b\L	.	4r	.	4r	.	4r	4ryy	.	4r	.	4r	.
.	.	.	.	16ccJk 16a/	16G\	.	.	16A/	.	16c\	-mi-	.	.	.	.	.	.	.	.	.	.	16a/Jk	.	16cc\Jk	.	.	.	.	.	.	.	.	.	.	.	.
.	.	.	.	4dd 4b\	8G\	.	.	8B\	.	8d\	-ne	.	8r	8r	.	.	.	8rGG	.	.	.	8b/L	.	8dd\L	.	8r	.	8r	.	8r	8ryy	.	8r	.	8r	.
!	!	!	!	!	!	!	!	!	!	!	!	!	!	!	!	!	!	!	!	!	!	!	!	!	!	!	!	!	!	!	!	!	!	!LO:HP:a	!	!
.	.	.	8Fn\	.	8Fn\	.	.	8B\	.	8d\	qui	.	8g/	8dd\	.	.	8Fn/	8Fn\	.	8fn\	.	8b/J	.	8dd\J	.	8Fn\	.	8gg 8g\	.	8b/	8g\	.	8bb\	<	8ddd\	.
*	*	*	*	*	*	*	*	*	*	*	*	*	*	*	*	*	*v	*v	*	*	*	*	*	*	*	*	*	*	*	*	*	*	*	*	*	*
=45	=45	=45	=45	=45	=45	=45	=45	=45	=45	=45	=45	=45	=45	=45	=45	=45	=45	=45	=45	=45	=45	=45	=45	=45	=45	=45	=45	=45	=45	=45	=45	=45	=45	=45	=45
*	*	*	*	*^	*	*	*	*	*	*	*	*	*	*	*	*	*	*	*	*	*	*	*	*	*	*	*	*	*	*	*	*	*	*	*
!	!	!	!	!	!LO:TX:a:t=P:problem=note posiiton	!	!	!	!	!	!	!	!	!	!	!	!	!	!	!	!	!	!	!	!	!	!	!	!	!	!	!	!	!	!	!
!	!	!	!	!	!	!	!	!	!	!	!	!	!LO:HP:a	!	!	!	!LO:HP:b	!	!	!	!	!	!	!	!	!	!	!	!	!	!	!LO:HP:a	!	!	!	!
2ryy	2ryy	2ryy	4E\	4cc/	2g\	4E\	.	.	4G/	.	4c\	ve-	<	4g/	4cc\	.	<	4E\	.	4e\	<	4g/	.	4cc\	<	4E\	.	4gg 4g\	.	4cc/	4g\	<	4gg\	.	4ccc\	.
.	.	.	4BB/	4dd/	.	8BB/	.	.	8G/	.	8d\	-nit	.	8g/	8dd\	.	.	8BB/L	.	8B/L	.	8g/L	.	8dd\L	.	8BB/L	.	8ggL 8g\	.	8dd/L	8g\L	[[	8gg\L	.	8ddd\L	.
.	.	.	.	.	.	8BB/	.	.	8G/	.	8d\	in	[[	8g/	8dd\	.	[[	8BB/J	.	8B/J	[[	8g/J	.	8dd\J	[[	8BB/J	.	8ggJ 8g\	.	8dd/J	8g\J	.	8gg\J	[[	8ddd\J	.
!!LO:PB:g=original
*	*	*	*	*	*	*	*	*	*	*	*	*	*	*	*	*	*	*	*	*	*	*	*	*	*	*	*	*	*	*v	*v	*	*	*	*	*
=46	=46	=46	=46	=46	=46	=46	=46	=46	=46	=46	=46	=46	=46	=46	=46	=46	=46	=46	=46	=46	=46	=46	=46	=46	=46	=46	=46	=46	=46	=46	=46	=46	=46	=46	=46
!	!	!	!	!LO:TX:a:t=P:problem=note posiiton	!	!	!	!	!	!	!	!	!	!	!	!	!	!	!	!	!	!	!	!	!	!	!	!	!	!	!	!	!	!	!
!	!	!	!	!	!	!	!	!LO:DY:a:rj	!	!	!	!	!LO:DY:a:rj	!	!	!	!	!	!LO:DY:b:rj	!	!	!	!	!	!LO:DY:b:rj	!	!	!	!	!	!	!	!LO:DY:b:rj	!	!LO:DY:b:rj
2ryy	2ryy	2ryy	4.C/	2ee/	4.g\	8.C/	.	f	8.G/	.	8.e\	no-	f	8.g/	8.ee\	.	.	8.C/L	f	8.c\L	.	8.g/L	.	8.ee\L	f	8.C/L	.	8.cc\L	.	8.eeL 8.g/	.	8.gg\L	f	8.eee\L	f
.	.	.	.	.	.	16C/	.	.	16G/	.	16e\	-mi-	.	16g/	16ee\	.	.	16C/Jk	.	16g\Jk	.	16g/Jk	.	16ee\Jk	.	16C/Jk	.	16cc\Jk	.	16eeJk 16g/	.	16gg\Jk	.	16eee\Jk	.
.	.	.	.	.	.	8C/	.	.	8G/	.	8e\	-ne	.	8g/	8ee\	.	.	8C/	.	8g\L	.	8g/	.	8ee\	.	8C/	.	8cc\	.	8ee 8g/	.	8gg\	.	8eee\	.
.	.	.	8C#X/	.	8a#X\	8C#X/	.	.	8A#X/	.	8e\	in	.	8r	8r	.	.	8C#X/	.	8g\J	.	8a#X/	.	8ee\	.	8r	.	8r	.	8r	.	8r	.	8r	.
*	*	*	*	*v	*v	*	*	*	*	*	*	*	*	*	*	*	*	*	*	*	*	*	*	*	*	*	*	*	*	*	*	*	*	*	*
=47	=47	=47	=47	=47	=47	=47	=47	=47	=47	=47	=47	=47	=47	=47	=47	=47	=47	=47	=47	=47	=47	=47	=47	=47	=47	=47	=47	=47	=47	=47	=47	=47	=47	=47
!	!	!	!	!	!	!	!LO:DY:a:rj	!	!	!	!	!LO:DY:a:rj	!	!	!	!	!	!	!	!LO:DY:b:rj	!	!	!	!LO:DY:b:rj	!	!	!	!	!	!	!	!	!	!
2ryy	2ryy	2ryy	[<4D/	8ddL 8b\	8D\	.	p	8B\	.	8d\	no-	p	2r	2r	.	.	4D\	.	4d\	p	8b/L	.	(>8dd\L	p	2r	.	2r	.	2r	.	2r	.	2r	.
.	.	.	.	16ccL 16an\	16D\	.	.	16An\	.	16c\	-mi-	.	.	.	.	.	.	.	.	.	16an/L	.	16cc\L	.	.	.	.	.	.	.	.	.	.	.
.	.	.	.	16bJJ 16g\	16D\	.	.	16G\	.	16B\	-ne	.	.	.	.	.	.	.	.	.	16g/JJ	.	16b\JJ	.	.	.	.	.	.	.	.	.	.	.
.	.	.	4D] 4DD/	8aL 8g/	8D\	.	.	8G/	.	8A\	Do-	.	.	.	.	.	4D\	.	4d\	.	8f#/L	.	8a\L)	.	.	.	.	.	.	.	.	.	.	.
.	.	.	.	8ddJ 8f#/	8D\	.	.	8F#/	.	8d\	-mi-	.	.	.	.	.	.	.	.	.	8f#/J	.	8dd\J	.	.	.	.	.	.	.	.	.	.	.
=48	=48	=48	=48	=48	=48	=48	=48	=48	=48	=48	=48	=48	=48	=48	=48	=48	=48	=48	=48	=48	=48	=48	=48	=48	=48	=48	=48	=48	=48	=48	=48	=48	=48	=48
2ryy	2ryy	2ryy	4.G 4.GG/	4.b 4.g/	4.GG/	.	.	4.G/	.	4.B\	-ni.	.	2r	2r	.	.	4.G\	.	4.d 4.G/	.	4.g/	.	4.b\	.	2r	.	2r	.	2r	.	2r	.	2r	.
.	.	.	8C#X/	8r	8C#X/	O-	.	8r	.	8r	.	.	.	.	.	.	8C#X\	.	8c#X/	.	8r	.	8r	.	.	.	.	.	.	.	.	.	.	.
=49	=49	=49	=49	=49	=49	=49	=49	=49	=49	=49	=49	=49	=49	=49	=49	=49	=49	=49	=49	=49	=49	=49	=49	=49	=49	=49	=49	=49	=49	=49	=49	=49	=49	=49
2ryy	2ryy	2ryy	4D\	4r	4D\	-san-	.	4r	.	4r	.	.	4r	4r	.	.	4D\	.	4d\	.	4r	.	4r	.	2r	.	2r	.	4r	.	4r	.	4r	.
.	.	.	[>4D\	8r	4D\	-na	.	8r	.	8r	.	.	8r	8r	.	.	4D\	.	4d\	.	8r	.	8r	.	.	.	.	.	8r	.	8r	.	8r	.
!	!	!	!	!	!	!	!	!	!	!	!	!LO:DY:a:rj	!	!	!	!LO:DY:a:rj	!	!	!	!	!	!	!	!	!	!	!	!	!	!	!	!	!	!
.	.	.	.	8b 8g/	.	.	.	8G/	.	8B\	O-	f	8g/	8b/	.	f	.	.	.	.	8g/	.	8b/	.	.	.	.	.	8b [<8g/	.	(>8gg\	.	8bb\	.
=50	=50	=50	=50	=50	=50	=50	=50	=50	=50	=50	=50	=50	=50	=50	=50	=50	=50	=50	=50	=50	=50	=50	=50	=50	=50	=50	=50	=50	=50	=50	=50	=50	=50	=50
*	*	*	*	*	*	*	*	*	*	*	*	*	*	*	*	*	*	*	*	*	*	*	*	*	*	*	*	*	*^	*	*	*	*	*
*	*	*	*	*^	*	*	*	*	*	*	*	*	*	*	*	*	*	*	*	*	*	*	*	*	*	*	*	*	*	*	*	*	*	*	*
*	*	*	*	*	*	*	*	*	*	*	*	*	*	*	*	*	*	*	*	*	*	*	*	*	*	*	*	*^	*	*	*	*	*	*	*	*
*	*	*	*	*	*	*	*	*	*	*	*	*	*	*	*	*	*	*	*	*	*	*	*	*	*	*	*	*2\right	*2\right	*	*	*	*	*	*	*	*
!	!	!	!	!	!	!	!	!	!	!	!	!	!	!	!	!	!	!	!	!	!LO:DY:b:rj	!	!	!	!	!	!LO:DY:b:rj	!	!	!LO:DY:b:rj	!	!	!	!	!	!	!
2ryy	2ryy	2ryy	4D\]	4.a/	8g\L	4D\	in	.	8G/	.	8A\	-san-	.	8g/	8a/	.	.	4D\	.	4d\	f	(<8g/L	.	8a/L	.	4D\	f	2dd/	2dd\	f	8a/L	8g\L]	.	8gg\L	.	8aa\L	.
.	.	.	.	.	16f#\L	.	.	.	16F#/LL	.	8A\	-na	.	(<16f#/LL	8a/	.	.	.	.	.	.	16f#/L	.	8a/	.	.	.	.	.	.	8a/	16f#\L	.	16ff#\L	.	8aa\	.
.	.	.	.	.	16e\JJ	.	.	.	16E/JJ	.	.	.	.	16e/JJ)	.	.	.	.	.	.	.	16e/JJ)	.	.	.	.	.	.	.	.	.	16e\JJ	.	16ee\JJ)	.	.	.
.	.	.	4D 4DD/	.	4f#\	4D\	ex-	.	8F#/	.	8A\	in	.	8f#/	8a/	.	.	4D\	.	4d\	.	8f#/L	.	8a/	.	4D\	.	.	.	.	8a/	8f#\L	.	8ff#\L	.	8aa\	.
.	.	.	.	8dd/	.	.	.	.	8F#/	.	8d\	ex-	.	8f#/	8dd\	.	.	.	.	.	.	8f#/J	.	8dd/J	.	.	.	.	.	.	8dd/J	8f#\J	.	8ff#\J	.	8ddd\J	.
!!LO:PB:g=original
*	*	*	*	*	*	*	*	*	*	*	*	*	*	*	*	*	*	*	*	*	*	*	*	*	*	*	*	*v	*v	*	*	*	*	*	*	*	*
*	*	*	*	*v	*v	*	*	*	*	*	*	*	*	*	*	*	*	*	*	*	*	*	*	*	*	*	*	*	*	*v	*v	*	*	*	*	*
=51	=51	=51	=51	=51	=51	=51	=51	=51	=51	=51	=51	=51	=51	=51	=51	=51	=51	=51	=51	=51	=51	=51	=51	=51	=51	=51	=51	=51	=51	=51	=51	=51	=51	=51
2ryy	2ryy	2ryy	4.G\	4.b 4.g/	4G\	-cael-	.	4G/	.	4B\	-cel-	.	4g/	4b\	.	.	4.G\	.	4.d 4.G/	.	4.g/	.	4.b/	.	4.G\	.	4.dd 4.g/	.	4.b 4.g/	.	4.gg\	.	4.bb\	.
.	.	.	.	.	8G\	-sis	.	8G/	.	8B\	-sis	.	8g/	8b\	.	.	.	.	.	.	.	.	.	.	.	.	.	.	.	.	.	.	.	.
.	.	.	(<16D/LL	8r	(<16D/LL	o-	.	8r	.	8r	.	.	8r	8r	.	.	(<16D/LL	.	(>16d\LL	.	8r	.	8r	.	8r	.	8r	.	8r	.	8r	.	8r	.
.	.	.	16C#X/JJ)	.	16C#X/JJ)	.	.	.	.	.	.	.	.	.	.	.	16C#X/JJ)	.	16c#X\JJ)	.	.	.	.	.	.	.	.	.	.	.	.	.	.	.
=52	=52	=52	=52	=52	=52	=52	=52	=52	=52	=52	=52	=52	=52	=52	=52	=52	=52	=52	=52	=52	=52	=52	=52	=52	=52	=52	=52	=52	=52	=52	=52	=52	=52	=52
2ryy	2ryy	2ryy	4D\	4r	4D\	-san-	.	4r	.	4r	.	.	4r	4r	.	.	4D\	.	4d\	.	4r	.	4r	.	2r	.	2r	.	4r	.	4r	.	4r	.
.	.	.	[>4D [<4DD/	8r	4D\	-na	.	8r	.	8r	.	.	8r	8r	.	.	4D\	.	4d\	.	8r	.	8r	.	.	.	.	.	8r	.	8r	.	8r	.
.	.	.	.	(<16ddLL 16b/	.	.	.	(<16B/LL	.	(>16d\LL	O-	.	(<16b/LL	(>16dd\LL	.	.	.	.	.	.	(<16b/LL	.	(>16dd\LL	.	.	.	.	.	(>16ddLL 16b\	.	(>16bb\LL	.	(>16ddd\LL	.
.	.	.	.	16bJJ) [<16g/	.	.	.	16G/JJ)	.	16B\JJ)	.	.	16g/JJ)	16b\JJ)	.	.	.	.	.	.	16g/JJ)	.	16b\JJ)	.	.	.	.	.	16bJJ 16g\)	.	16gg\JJ)	.	16bb\JJ)	.
=53	=53	=53	=53	=53	=53	=53	=53	=53	=53	=53	=53	=53	=53	=53	=53	=53	=53	=53	=53	=53	=53	=53	=53	=53	=53	=53	=53	=53	=53	=53	=53	=53	=53	=53
*	*	*	*	*^	*	*	*	*	*	*	*	*	*	*	*	*	*	*	*	*	*	*	*	*	*	*	*^	*	*^	*	*	*	*	*
2ryy	2ryy	2ryy	4D] 4DD/]	(>4.a/	8g\L]	4D\	in	.	8G/	.	8A\	-san-	.	8g/	8a\	.	.	4D\	.	4d\	.	(<8g/L	.	8a/L	.	4D\	.	4cc/	4cc\	.	8a/L	8g\L	.	(>8gg\L	.	8aa\L	.
.	.	.	.	.	16f#\L	.	.	.	16F#/LL	.	8A\	-na	.	16f#/LL	8a\	.	.	.	.	.	.	16f#/L	.	8a/	.	.	.	.	.	.	8a/J	16f#\L	.	16ff#\L	.	8aa\	.
.	.	.	.	.	16e\JJ	.	.	.	16E/JJ	.	.	.	.	16e/JJ	.	.	.	.	.	.	.	16e/JJ)	.	.	.	.	.	.	.	.	.	16e\JJ	.	16ee\JJ)	.	.	.
.	.	.	4D 4DD/	.	4f#\	4D\	ex-	.	8F#/	.	8A\	in	.	8f#/	8a\	.	.	4D\	.	4d\	.	8f#/L	.	8a/	.	4D\	.	4dd/	4dd\	.	8a/L	8f#\L	.	8ff#\L	.	8aa\	.
.	.	.	.	8dd/)	.	.	.	.	8F#/	.	8d\	ex-	.	8f#/	8dd\	.	.	.	.	.	.	8f#/J	.	8dd/J	.	.	.	.	.	.	8dd/J	8f#\J	.	8ff#\J	.	8ddd\J	.
*	*	*	*	*v	*v	*	*	*	*	*	*	*	*	*	*	*	*	*	*	*	*	*	*	*	*	*	*	*v	*v	*	*	*	*	*	*	*	*
=54	=54	=54	=54	=54	=54	=54	=54	=54	=54	=54	=54	=54	=54	=54	=54	=54	=54	=54	=54	=54	=54	=54	=54	=54	=54	=54	=54	=54	=54	=54	=54	=54	=54	=54	=54
2ryy	2ryy	2ryy	4G 4GG/	[<4g/	4G\	-cael-	.	4G/	.	4G/	-cel-	.	4g/	4g/	.	.	[>4G\	.	[>4g\	.	[<4g/	.	[>4g/	.	[>4G\	.	[>4dd [<4g/	.	[<4g/	4ryy	.	[>4gg\	.	[>4gg\	.
.	.	.	8GL 8GG/	8g/L]	16G\	-sis	.	16G/	.	16G/	-sis	.	16g/	16g/	.	.	8G\]	.	8g\]	.	16g/]	.	16g/]	.	8G\L]	.	16dd] 16g/]	.	16g/]	16ryy	.	16gg\]	.	16gg\]	.
.	.	.	.	.	16G\LL	in	.	8G/	.	(<16G/LL	in	.	8g/	(<16g/LL	.	.	.	.	.	.	8g/L	.	(<16g/LL	.	.	.	16r	.	16g/LL	8g\L	.	8gg\L	.	(>16gg\LL	.
.	.	.	16E/L	(<16ccL 16g/	16E\JJ	.	.	.	.	16c/JJ)	.	.	.	16cc/JJ)	.	.	(<16E/LL	.	(>16e\LL	.	.	.	16cc/	.	(>16E\L	.	8r	.	16cc/	.	.	.	.	16ccc\	.
.	.	.	16C/JJ	16eeJJ 16cc/)	16C/	ex-	.	16c\	.	16e\	ex-	.	16g/	16ee\	.	.	16C/JJ)	.	16c\JJ)	.	16cc/Jk	.	16ee/JJ)	.	16C\JJ)	.	.	.	16ee/JJ	16g\Jk	.	16ccc\Jk	.	16eee\JJ)	.
*	*	*	*	*	*	*	*	*	*	*	*	*	*	*	*	*	*	*	*	*	*	*	*	*	*	*	*	*	*v	*v	*	*	*	*	*
=55	=55	=55	=55	=55	=55	=55	=55	=55	=55	=55	=55	=55	=55	=55	=55	=55	=55	=55	=55	=55	=55	=55	=55	=55	=55	=55	=55	=55	=55	=55	=55	=55	=55	=55
*	*	*	*	*^	*	*	*	*	*	*	*	*	*	*	*	*	*	*	*	*	*	*	*	*	*	*	*^	*	*	*	*	*	*	*
2ryy	2ryy	2ryy	[<2C/	2ee/	2cc\	4C/	-cael-	.	4c\	.	4e\	-ecel-	.	4g/	4ee\	.	.	4C/	.	4g\	.	4cc\	.	4ee\	.	4C/	.	4ee/	4cc\	.	4ee 4g/	.	4ccc\	.	4eee\	.
.	.	.	.	.	.	4C/	-sis	.	4c\	.	4e\	-sis	.	4g/	4ee\	.	.	4C/	.	4g\	.	4cc\	.	4ee\	.	4C/	.	4ee/	4cc\	.	4ee 4g/	.	4ccc\	.	4eee\	.
!!LO:PB:g=original
*	*	*	*	*v	*v	*	*	*	*	*	*	*	*	*	*	*	*	*	*	*	*	*	*	*	*	*	*	*v	*v	*	*	*	*	*	*	*
=56	=56	=56	=56	=56	=56	=56	=56	=56	=56	=56	=56	=56	=56	=56	=56	=56	=56	=56	=56	=56	=56	=56	=56	=56	=56	=56	=56	=56	=56	=56	=56	=56	=56	=56
2ryy	2ryy	2ryy	(>4C/]	(>4ee 4cc\	(<4C/	.	.	(>4c\	.	(>4e\	De-	.	4g/	(>4ee\	De-	.	4C/	.	(>4g\	.	(>4cc\	.	(>4ee\	.	4C/	.	(>4ee 4cc\	.	(>4ee 4cc\	.	(>4ccc\	.	(>4eee\	.
.	.	.	8GG/L	8ddL 8b\	8GG/L	.	.	8B\L	.	8d\L	.	.	8g/L	8dd\L	.	.	(<8GG/L	.	8g\L	.	8b\L	.	8dd\L	.	(<8GG/L	.	8ddL 8g/	.	8ddL 8b\	.	8bb\L	.	8ddd\L	.
.	.	.	8AA/J)	8ccJ 8a\)	8AA/J)	.	.	8A\J)	.	8c\J)	-o.	.	8e/J	8cc\J)	.	.	8AA/J)	.	8e\J)	.	8a\J)	.	8cc\J)	.	8AA/J)	.	8ccJ 8e/)	.	8ccJ 8a\	.	8aa\J)	.	8ccc\J)	.
=57	=57	=57	=57	=57	=57	=57	=57	=57	=57	=57	=57	=57	=57	=57	=57	=57	=57	=57	=57	=57	=57	=57	=57	=57	=57	=57	=57	=57	=57	=57	=57	=57	=57	=57
*	*	*	*	*	*	*	*	*	*	*	*	*	*	*	*	*	*	*	*	*	*	*	*	*	*	*	*	*	*^	*	*	*	*	*
*	*	*	*	*	*	*	*	*	*	*	*	*	*	*	*	*	*	*	*	*	*	*	*	*	*	*	*	*	*	*2\right	*	*	*	*2\right	*
2ryy	2ryy	2ryy	2GG;>/	2dd 2b;>\	2GG;>/	.	.	2B;>\	.	2d;>\	.	.	2g;>/	2dd;>\	-o.	.	2GG;>/	.	2g;>\	.	2b;>\	.	2dd;>\	.	2GG;>/	.	2dd 2g;>/	.	2dd;>/)	2b\	.	2bb;>\	.	2ddd;>\	.
*	*	*	*	*	*	*	*	*	*	*	*	*	*	*	*	*	*	*	*	*	*	*	*	*	*	*	*	*	*v	*v	*	*	*	*	*
==	==	==	==	==	==	==	==	==	==	==	==	==	==	==	==	==	==	==	==	==	==	==	==	==	==	==	==	==	==	==	==	==	==	==
*-	*-	*-	*-	*-	*-	*-	*-	*-	*-	*-	*-	*-	*-	*-	*-	*-	*-	*-	*-	*-	*-	*-	*-	*-	*-	*-	*-	*-	*-	*-	*-	*-	*-	*-
!!!system-decoration: {(s1,s2,s3,s4,s5)}{(s6,s7,s8,s9)}{(s10,s11)}{(s12s13,s14)}{(s15,s16)}{(s17,s18,s19)}
!!!RDF**kern: > = above
!!!RDF**kern: < = below
!!!RDF**kern: N = linked
!!!RDF**kern: i = editorial accidental
!!!EED: Wojciech Jakubiak-Danek
!!!EEV: 2021-04-22
!!!ENC: Krzysztof Stępień
!!!END: 2021-04-08
!!!YEC: Copyright 2022 Narodowy Instytut Fryderyka Chopina (https://polishscores.org)
!!!YEM: License CC-BY-4.0 (https://creativecommons.org/licenses/by/4.0)
